; generated by Slic3r 1.2.9 on 2017-11-19 at 20:01:54

; external perimeters extrusion width = 0.40mm
; perimeters extrusion width = 0.56mm
; infill extrusion width = 0.56mm
; solid infill extrusion width = 0.56mm
; top infill extrusion width = 0.56mm

M107
M190 S95 ; set bed temperature
M104 S250 ; set temperature
G28 ; home all axes
G1 Z5 F5000 ; lift nozzle

M109 S250 ; wait for temperature to be reached
G21 ; set units to millimeters
G90 ; use absolute coordinates
M82 ; use absolute distances for extrusion
G92 E0
G1 Z0.200 F6000.000
G1 E-1.00000 F2400.00000
G92 E0
G1 X78.137 Y77.643 F6000.000
G1 E1.00000 F2400.00000
G1 X78.685 Y77.141 E1.02826 F1800.000
G1 X79.269 Y76.681 E1.05650
G1 X79.883 Y76.265 E1.08469
G1 X80.528 Y75.895 E1.11296
G1 X81.196 Y75.573 E1.14114
G1 X81.888 Y75.301 E1.16941
G1 X82.598 Y75.079 E1.19766
G1 X83.523 Y74.873 E1.23366
G1 X84.259 Y74.773 E1.26190
G1 X84.795 Y74.733 E1.28235
G1 X85.364 Y74.722 E1.30395
G1 X95.013 Y74.845 E1.67071
G1 X95.929 Y74.896 E1.70558 F1800.000
G1 X96.866 Y75.034 E1.74158
G1 X97.391 Y75.151 E1.76204
G1 X98.105 Y75.358 E1.79027
G1 X98.801 Y75.617 E1.81851
G1 X99.483 Y75.928 E1.84697
G1 X100.303 Y76.389 E1.88274
G1 X100.918 Y76.805 E1.91097
G1 X101.345 Y77.134 E1.93144
G1 X101.903 Y77.624 E1.95967
G1 X102.560 Y78.306 E1.99567
G1 X103.030 Y78.882 E2.02390
G1 X103.343 Y79.319 E2.04436
G1 X103.736 Y79.949 E2.07258
G1 X104.083 Y80.607 E2.10083
G1 X104.453 Y81.479 E2.13683
G1 X104.627 Y81.988 E2.15728
G1 X104.822 Y82.704 E2.18550
G1 X104.964 Y83.434 E2.21376
G1 X105.068 Y84.375 E2.24976
G1 X105.283 Y95.173 E2.66019
G1 X105.248 Y95.915 E2.68843
G1 X105.189 Y96.450 E2.70889
G1 X105.062 Y97.181 E2.73708
G1 X104.881 Y97.902 E2.76536
G1 X104.575 Y98.799 E2.80136
G1 X104.278 Y99.479 E2.82959
G1 X103.932 Y100.137 E2.85782
G1 X103.651 Y100.596 E2.87829
G1 X103.225 Y101.205 E2.90652
G1 X102.756 Y101.780 E2.93475
G1 X102.245 Y102.320 E2.96299
G1 X101.540 Y102.952 E2.99898
G1 X100.948 Y103.400 E3.02722
G1 X100.498 Y103.698 E3.04768
G1 X99.854 Y104.068 E3.07591
G1 X99.185 Y104.390 E3.10415
G1 X98.494 Y104.662 E3.13236
G1 X97.785 Y104.883 E3.16061
G1 X96.860 Y105.089 E3.19661
G1 X96.124 Y105.190 E3.22485
G1 X95.141 Y105.241 E3.26228
G1 X84.914 Y105.279 E3.65098
G1 X84.413 Y105.267 E3.67001
G1 X83.876 Y105.227 E3.69045
G1 X82.939 Y105.089 E3.72647
G1 X82.215 Y104.921 E3.75471
G1 X81.700 Y104.766 E3.77517
G1 X81.003 Y104.507 E3.80340
G1 X80.146 Y104.105 E3.83940
G1 X79.676 Y103.842 E3.85986
G1 X79.053 Y103.438 E3.88809
G1 X78.460 Y102.990 E3.91633
G1 X77.754 Y102.358 E3.95233
G1 X77.377 Y101.966 E3.97302
G1 X76.900 Y101.404 E4.00103
G1 X76.462 Y100.804 E4.02926
G1 X76.069 Y100.175 E4.05748
G1 X75.722 Y99.517 E4.08573
G1 X75.352 Y98.645 E4.12173
G1 X75.119 Y97.940 E4.14996
G1 X74.981 Y97.413 E4.17066
G1 X74.840 Y96.690 E4.19864
G1 X74.752 Y95.953 E4.22687
G1 X74.717 Y95.210 E4.25512
G1 X74.722 Y94.730 E4.27338
G1 X75.119 Y84.253 E4.67186
G1 X75.194 Y83.507 E4.70036
G1 X75.365 Y82.581 E4.73613
G1 X75.560 Y81.864 E4.76436
G1 X75.734 Y81.355 E4.78482
G1 X76.018 Y80.668 E4.81306
G1 X76.351 Y80.004 E4.84129
G1 X76.844 Y79.196 E4.87729
G1 X77.283 Y78.596 E4.90552
G1 X77.627 Y78.182 E4.92599
G1 X78.095 Y77.686 E4.95191
G1 X78.454 Y77.972 F6000.000
G1 X78.978 Y77.492 E4.97890 F1800.000
G1 X79.535 Y77.053 E5.00586
G1 X80.122 Y76.656 E5.03279
G1 X80.737 Y76.301 E5.05979
G1 X81.375 Y75.994 E5.08671
G1 X82.042 Y75.731 E5.11396
G1 X82.912 Y75.470 E5.14845
G1 X83.606 Y75.323 E5.17541
G1 X84.309 Y75.227 E5.20238
G1 X84.812 Y75.190 E5.22157
G1 X85.358 Y75.179 E5.24231
G1 X95.007 Y75.302 E5.60906
G1 X95.879 Y75.351 E5.64226 F1800.000
G1 X96.783 Y75.484 E5.67699
G1 X97.276 Y75.593 E5.69618
G1 X97.957 Y75.791 E5.72314
G1 X98.623 Y76.037 E5.75011
G1 X99.450 Y76.425 E5.78484
G1 X100.065 Y76.779 E5.81180
G1 X100.652 Y77.176 E5.83877
G1 X101.052 Y77.485 E5.85796
G1 X101.586 Y77.953 E5.88493
G1 X102.083 Y78.458 E5.91189
G1 X102.668 Y79.161 E5.94662
G1 X102.962 Y79.572 E5.96582
G1 X103.337 Y80.173 E5.99276
G1 X103.669 Y80.801 E6.01975
G1 X104.026 Y81.642 E6.05448
G1 X104.189 Y82.119 E6.07365
G1 X104.376 Y82.804 E6.10061
G1 X104.512 Y83.501 E6.12760
G1 X104.612 Y84.409 E6.16233
G1 X104.826 Y95.173 E6.57150
G1 X104.792 Y95.881 E6.59846
G1 X104.737 Y96.383 E6.61766
G1 X104.616 Y97.081 E6.64458
G1 X104.444 Y97.770 E6.67158
G1 X104.148 Y98.635 E6.70631
G1 X103.951 Y99.100 E6.72551
G1 X103.633 Y99.734 E6.75247
G1 X103.270 Y100.344 E6.77944
G1 X102.863 Y100.925 E6.80640
G1 X102.279 Y101.628 E6.84113
G1 X101.781 Y102.133 E6.86810
G1 X101.248 Y102.601 E6.89506
G1 X100.682 Y103.029 E6.92202
G1 X100.260 Y103.307 E6.94122
G1 X99.645 Y103.661 E6.96818
G1 X99.006 Y103.969 E6.99515
G1 X98.153 Y104.295 E7.02988
G1 X97.471 Y104.493 E7.05684
G1 X96.777 Y104.640 E7.08381
G1 X96.074 Y104.735 E7.11077
G1 X95.139 Y104.784 E7.14636
G1 X84.912 Y104.822 E7.53506
G1 X83.926 Y104.773 E7.57256
G1 X83.022 Y104.640 E7.60731
G1 X82.529 Y104.530 E7.62651
G1 X81.847 Y104.333 E7.65347
G1 X81.182 Y104.087 E7.68043
G1 X80.355 Y103.699 E7.71516
G1 X79.914 Y103.452 E7.73435
G1 X79.319 Y103.066 E7.76131
G1 X78.752 Y102.639 E7.78829
G1 X78.072 Y102.029 E7.82302
G1 X77.717 Y101.661 E7.84244
G1 X77.262 Y101.125 E7.86918
G1 X76.843 Y100.552 E7.89614
G1 X76.467 Y99.951 E7.92309
G1 X76.136 Y99.323 E7.95007
G1 X75.778 Y98.482 E7.98480
G1 X75.556 Y97.808 E8.01176
G1 X75.427 Y97.313 E8.03120
G1 X75.293 Y96.623 E8.05791
G1 X75.208 Y95.919 E8.08487
G1 X75.174 Y95.210 E8.11185
G1 X75.179 Y94.747 E8.12946
G1 X75.575 Y84.286 E8.52732
G1 X75.646 Y83.572 E8.55458
G1 X75.811 Y82.681 E8.58905
G1 X75.939 Y82.192 E8.60824
G1 X76.161 Y81.518 E8.63521
G1 X76.432 Y80.862 E8.66217
G1 X76.750 Y80.228 E8.68914
G1 X77.226 Y79.448 E8.72387
G1 X77.644 Y78.875 E8.75083
G1 X77.967 Y78.487 E8.77003
G1 X78.412 Y78.015 E8.79468
G1 X78.771 Y78.301 F6000.000
G1 X79.270 Y77.844 E8.82040 F1800.000
G1 X79.801 Y77.424 E8.84610
G1 X80.360 Y77.046 E8.87176
G1 X80.946 Y76.708 E8.89749
G1 X81.554 Y76.415 E8.92314
G1 X82.190 Y76.164 E8.94912
G1 X83.027 Y75.912 E8.98234
G1 X83.689 Y75.772 E9.00804
G1 X84.359 Y75.681 E9.03373
G1 X84.829 Y75.647 E9.05165
G1 X85.352 Y75.636 E9.07154
G1 X95.001 Y75.759 E9.43829
G1 X95.829 Y75.805 E9.46980 F1800.000
G1 X96.700 Y75.933 E9.50326
G1 X97.160 Y76.036 E9.52119
G1 X97.810 Y76.223 E9.54688
G1 X98.444 Y76.458 E9.57258
G1 X99.241 Y76.832 E9.60604
G1 X99.827 Y77.169 E9.63174
G1 X100.387 Y77.548 E9.65743
G1 X100.760 Y77.836 E9.67536
G1 X101.268 Y78.282 E9.70105
G1 X101.743 Y78.764 E9.72675
G1 X102.306 Y79.440 E9.76021
G1 X102.581 Y79.824 E9.77814
G1 X102.939 Y80.397 E9.80381
G1 X103.255 Y80.995 E9.82953
G1 X103.599 Y81.805 E9.86299
G1 X103.751 Y82.251 E9.88090
G1 X103.930 Y82.903 E9.90659
G1 X104.060 Y83.567 E9.93230
G1 X104.156 Y84.442 E9.96576
G1 X104.369 Y95.173 E10.37366
G1 X104.337 Y95.848 E10.39936
G1 X104.285 Y96.317 E10.41729
G1 X104.170 Y96.982 E10.44294
G1 X104.006 Y97.639 E10.46868
G1 X103.795 Y98.281 E10.49437
G1 X103.450 Y99.091 E10.52783
G1 X103.135 Y99.689 E10.55353
G1 X102.776 Y100.262 E10.57922
G1 X102.377 Y100.808 E10.60492
G1 X101.938 Y101.323 E10.63061
G1 X101.611 Y101.662 E10.64854
G1 X101.112 Y102.119 E10.67423
G1 X100.582 Y102.538 E10.69993
G1 X100.022 Y102.917 E10.72563
G1 X99.436 Y103.255 E10.75132
G1 X98.827 Y103.548 E10.77702
G1 X98.005 Y103.863 E10.81048
G1 X97.356 Y104.050 E10.83617
G1 X96.694 Y104.190 E10.86187
G1 X96.024 Y104.281 E10.88756
G1 X95.137 Y104.327 E10.92132
G1 X84.910 Y104.365 E11.31001
G1 X83.976 Y104.319 E11.34555
G1 X83.105 Y104.191 E11.37903
G1 X82.644 Y104.088 E11.39696
G1 X81.995 Y103.900 E11.42265
G1 X81.361 Y103.666 E11.44835
G1 X80.564 Y103.292 E11.48181
G1 X80.146 Y103.058 E11.49999
G1 X79.585 Y102.695 E11.52542
G1 X79.045 Y102.287 E11.55113
G1 X78.389 Y101.700 E11.58459
G1 X77.925 Y101.208 E11.61028
G1 X77.623 Y100.845 E11.62821
G1 X77.224 Y100.300 E11.65390
G1 X76.866 Y99.727 E11.67958
G1 X76.550 Y99.129 E11.70529
G1 X76.205 Y98.319 E11.73876
G1 X75.994 Y97.676 E11.76445
G1 X75.873 Y97.214 E11.78262
G1 X75.745 Y96.557 E11.80806
G1 X75.663 Y95.886 E11.83375
G1 X75.631 Y95.210 E11.85946
G1 X75.636 Y94.764 E11.87642
G1 X76.031 Y84.319 E12.27367
G1 X76.098 Y83.646 E12.29937
G1 X76.258 Y82.780 E12.33285
G1 X76.436 Y82.128 E12.35855
G1 X76.588 Y81.681 E12.37647
G1 X76.846 Y81.056 E12.40217
G1 X77.148 Y80.452 E12.42787
G1 X77.607 Y79.700 E12.46133
G1 X78.006 Y79.155 E12.48702
G1 X78.308 Y78.792 E12.50495
G1 X78.730 Y78.344 E12.52834
G1 E11.52834 F2400.00000
G92 E0
G1 X79.921 Y89.631 F6000.000
G1 E1.00000 F2400.00000
G1 X79.507 Y89.112 E1.02525 F1800.000
G1 X79.131 Y88.545 E1.05109
G1 X78.954 Y88.228 E1.06490
G1 X78.727 Y87.758 E1.08474
G1 X78.484 Y87.123 E1.11058
G1 X78.339 Y86.622 E1.13040
G1 X78.260 Y86.267 E1.14421
G1 X78.161 Y85.595 E1.17006
G1 X78.135 Y85.232 E1.18387
G1 X78.129 Y84.711 E1.20369
G1 X78.178 Y84.032 E1.22954
G1 X78.260 Y83.517 E1.24936
G1 X78.339 Y83.162 E1.26319
G1 X78.535 Y82.511 E1.28905
G1 X78.727 Y82.026 E1.30887
G1 X78.881 Y81.697 E1.32267
G1 X79.214 Y81.104 E1.34852
G1 X79.414 Y80.801 E1.36233
G1 X79.729 Y80.384 E1.38215
G1 X80.182 Y79.878 E1.40799
G1 X80.444 Y79.626 E1.42181
G1 X80.841 Y79.288 E1.44164
G1 X81.394 Y78.892 E1.46747
G1 X81.843 Y78.625 E1.48732
G1 X82.309 Y78.392 E1.50713
G1 X82.644 Y78.250 E1.52095
G1 X83.136 Y78.076 E1.54078
G1 X83.639 Y77.938 E1.56061
G1 X84.151 Y77.838 E1.58043
G1 X84.669 Y77.775 E1.60027
G1 X85.190 Y77.750 E1.62009
G1 X85.711 Y77.763 E1.63993
G1 X86.387 Y77.838 E1.66577
G1 X86.900 Y77.938 E1.68561
G1 X87.403 Y78.076 E1.70544
G1 X87.747 Y78.193 E1.71924
G1 X88.372 Y78.459 E1.74508
G1 X88.834 Y78.703 E1.76492
G1 X89.276 Y78.979 E1.78474
G1 X89.572 Y79.191 E1.79855
G1 X90.003 Y79.542 E1.81969
G1 X90.333 Y79.542 E1.83225
G1 X90.911 Y79.103 E1.85983
G1 X91.353 Y78.826 E1.87966
G1 X91.815 Y78.583 E1.89948
G1 X92.293 Y78.373 E1.91932
G1 X92.937 Y78.154 E1.94518
G1 X93.288 Y78.062 E1.95898
G1 X93.800 Y77.961 E1.97880
G1 X94.562 Y77.884 E2.00792
G1 X94.997 Y77.874 E2.02446
G1 X95.519 Y77.898 E2.04432
G1 X96.036 Y77.961 E2.06413
G1 X96.394 Y78.027 E2.07794
G1 X96.900 Y78.154 E2.09777
G1 X97.396 Y78.317 E2.11760
G1 X98.098 Y78.622 E2.14671
G1 X98.483 Y78.826 E2.16327
G1 X98.925 Y79.103 E2.18309
G1 X99.221 Y79.314 E2.19690
G1 X99.625 Y79.644 E2.21673
G1 X100.115 Y80.116 E2.24259
G1 X100.357 Y80.386 E2.25639
G1 X100.681 Y80.796 E2.27622
G1 X100.973 Y81.227 E2.29604
G1 X101.234 Y81.680 E2.31588
G1 X101.523 Y82.296 E2.34175
G1 X101.703 Y82.785 E2.36155
G1 X101.848 Y83.286 E2.38138
G1 X101.927 Y83.641 E2.39519
G1 X102.009 Y84.156 E2.41502
G1 X102.059 Y84.834 E2.44087
G1 X102.059 Y85.197 E2.45468
G1 X102.026 Y85.718 E2.47451
G1 X101.956 Y86.235 E2.49433
G1 X101.848 Y86.746 E2.51416
G1 X101.652 Y87.398 E2.54004
G1 X101.460 Y87.882 E2.55985
G1 X101.234 Y88.352 E2.57968
G1 X101.056 Y88.669 E2.59348
G1 X100.773 Y89.107 E2.61331
G1 X100.252 Y89.772 E2.64541
G1 X100.258 Y90.112 E2.65833
G1 X100.654 Y90.563 E2.68114
G1 X100.968 Y90.979 E2.70096
G1 X101.251 Y91.417 E2.72078
G1 X101.502 Y91.876 E2.74064
G1 X101.718 Y92.350 E2.76046
G1 X101.899 Y92.839 E2.78027
G1 X102.044 Y93.340 E2.80009
G1 X102.123 Y93.695 E2.81391
G1 X102.204 Y94.210 E2.83374
G1 X102.248 Y94.730 E2.85356
G1 X102.254 Y95.252 E2.87339
G1 X102.222 Y95.773 E2.89322
G1 X102.151 Y96.289 E2.91304
G1 X102.044 Y96.800 E2.93288
G1 X101.847 Y97.452 E2.95875
G1 X101.656 Y97.937 E2.97856
G1 X101.429 Y98.407 E2.99840
G1 X101.251 Y98.723 E3.01220
G1 X100.968 Y99.162 E3.03203
G1 X100.654 Y99.578 E3.05186
G1 X100.310 Y99.970 E3.07168
G1 X99.820 Y100.443 E3.09754
G1 X99.541 Y100.675 E3.11134
G1 X99.121 Y100.983 E3.13117
G1 X98.678 Y101.260 E3.15100
G1 X98.217 Y101.504 E3.17082
G1 X97.591 Y101.769 E3.19667
G1 X97.247 Y101.887 E3.21048
G1 X96.744 Y102.024 E3.23031
G1 X96.232 Y102.125 E3.25013
G1 X95.714 Y102.188 E3.26997
G1 X95.034 Y102.213 E3.29584
G1 X94.513 Y102.188 E3.31564
G1 X94.152 Y102.148 E3.32946
G1 X93.638 Y102.059 E3.34928
G1 X93.132 Y101.933 E3.36911
G1 X92.488 Y101.713 E3.39497
G1 X92.010 Y101.504 E3.41479
G1 X91.549 Y101.260 E3.43462
G1 X91.107 Y100.983 E3.45444
G1 X90.811 Y100.772 E3.46825
G1 X90.196 Y100.254 E3.49882
G1 X89.846 Y100.254 E3.51211
G1 X89.314 Y100.712 E3.53881
G1 X88.893 Y101.021 E3.55864
G1 X88.451 Y101.297 E3.57846
G1 X87.990 Y101.541 E3.59829
G1 X87.512 Y101.750 E3.61812
G1 X87.020 Y101.924 E3.63795
G1 X86.361 Y102.097 E3.66382
G1 X85.848 Y102.185 E3.68361
G1 X85.328 Y102.237 E3.70348
G1 X84.807 Y102.250 E3.72331
G1 X84.286 Y102.225 E3.74311
G1 X83.925 Y102.186 E3.75693
G1 X83.411 Y102.096 E3.77675
G1 X82.905 Y101.970 E3.79658
G1 X82.409 Y101.807 E3.81641
G1 X81.706 Y101.502 E3.84553
G1 X81.322 Y101.297 E3.86208
G1 X80.880 Y101.021 E3.88191
G1 X80.584 Y100.809 E3.89572
G1 X80.179 Y100.480 E3.91554
G1 X79.800 Y100.122 E3.93537
G1 X79.447 Y99.737 E3.95520
G1 X79.031 Y99.199 E3.98107
G1 X78.749 Y98.761 E4.00088
G1 X78.498 Y98.303 E4.02072
G1 X78.282 Y97.828 E4.04056
G1 X78.101 Y97.339 E4.06036
G1 X77.956 Y96.838 E4.08019
G1 X77.877 Y96.483 E4.09400
G1 X77.772 Y95.724 E4.12312
G1 X77.746 Y95.289 E4.13968
G1 X77.752 Y94.768 E4.15949
G1 X77.796 Y94.248 E4.17932
G1 X77.849 Y93.889 E4.19313
G1 X77.997 Y93.224 E4.21900
G1 X78.101 Y92.877 E4.23280
G1 X78.282 Y92.387 E4.25262
G1 X78.571 Y91.771 E4.27849
G1 X78.831 Y91.319 E4.29831
G1 X79.124 Y90.887 E4.31814
G1 X79.447 Y90.478 E4.33797
G1 X79.908 Y89.981 E4.36374
G1 X79.919 Y89.691 E4.37475
G1 E3.37475 F2400.00000
G92 E0
G1 X99.633 Y90.144 F6000.000
G1 E1.00000 F2400.00000
G1 X99.976 Y90.481 E1.01830 F1800.000
G1 X100.298 Y90.849 E1.03686
G1 X100.592 Y91.238 E1.05542
G1 X100.857 Y91.648 E1.07397
G1 X101.027 Y91.951 E1.08715
G1 X101.239 Y92.390 E1.10571
G1 X101.418 Y92.845 E1.12426
G1 X101.563 Y93.311 E1.14282
G1 X101.700 Y93.926 E1.16678
G1 X101.766 Y94.410 E1.18534
G1 X101.797 Y94.897 E1.20389
G1 X101.797 Y95.244 E1.21706
G1 X101.766 Y95.731 E1.23562
G1 X101.700 Y96.215 E1.25418
G1 X101.599 Y96.692 E1.27274
G1 X101.418 Y97.296 E1.29671
G1 X101.238 Y97.750 E1.31525
G1 X101.026 Y98.190 E1.33382
G1 X100.857 Y98.492 E1.34698
G1 X100.592 Y98.902 E1.36554
G1 X100.297 Y99.292 E1.38410
G1 X99.975 Y99.659 E1.40266
G1 X99.628 Y100.002 E1.42122
G1 X99.255 Y100.318 E1.43978
G1 X98.743 Y100.685 E1.46374
G1 X98.323 Y100.935 E1.48229
G1 X97.887 Y101.153 E1.50085
G1 X97.436 Y101.340 E1.51940
G1 X97.107 Y101.452 E1.53258
G1 X96.636 Y101.580 E1.55114
G1 X96.157 Y101.674 E1.56969
G1 X95.530 Y101.743 E1.59366
G1 X95.042 Y101.755 E1.61222
G1 X94.555 Y101.732 E1.63076
G1 X94.070 Y101.674 E1.64934
G1 X93.591 Y101.580 E1.66789
G1 X93.256 Y101.492 E1.68106
G1 X92.792 Y101.340 E1.69962
G1 X92.340 Y101.153 E1.71817
G1 X91.904 Y100.935 E1.73673
G1 X91.366 Y100.607 E1.76068
G1 X90.972 Y100.318 E1.77925
G1 X90.600 Y100.002 E1.79781
G1 X90.212 Y99.618 E1.81852
G1 X89.824 Y99.618 E1.83328
G1 X89.295 Y100.134 E1.86137
G1 X88.916 Y100.443 E1.87993
G1 X88.516 Y100.723 E1.89849
G1 X88.096 Y100.972 E1.91705
G1 X87.660 Y101.191 E1.93560
G1 X87.208 Y101.377 E1.95415
G1 X86.880 Y101.489 E1.96733
G1 X86.409 Y101.618 E1.98590
G1 X85.930 Y101.711 E2.00444
G1 X85.303 Y101.780 E2.02842
G1 X84.815 Y101.793 E2.04698
G1 X84.328 Y101.770 E2.06551
G1 X83.843 Y101.711 E2.08409
G1 X83.363 Y101.618 E2.10264
G1 X83.028 Y101.530 E2.11581
G1 X82.565 Y101.377 E2.13437
G1 X82.113 Y101.191 E2.15293
G1 X81.677 Y100.972 E2.17149
G1 X81.075 Y100.599 E2.19838
G1 X80.744 Y100.356 E2.21399
G1 X80.372 Y100.039 E2.23255
G1 X80.025 Y99.697 E2.25110
G1 X79.793 Y99.439 E2.26428
G1 X79.491 Y99.055 E2.28284
G1 X79.217 Y98.651 E2.30140
G1 X78.909 Y98.101 E2.32535
G1 X78.706 Y97.657 E2.34393
G1 X78.536 Y97.199 E2.36246
G1 X78.401 Y96.730 E2.38102
G1 X78.300 Y96.252 E2.39958
G1 X78.234 Y95.769 E2.41814
G1 X78.203 Y95.281 E2.43671
G1 X78.208 Y94.793 E2.45526
G1 X78.249 Y94.306 E2.47382
G1 X78.325 Y93.824 E2.49237
G1 X78.437 Y93.348 E2.51096
G1 X78.536 Y93.016 E2.52412
G1 X78.706 Y92.559 E2.54268
G1 X78.909 Y92.114 E2.56124
G1 X79.143 Y91.686 E2.57980
G1 X79.408 Y91.276 E2.59836
G1 X79.793 Y90.777 E2.62231
G1 X80.123 Y90.417 E2.64085
G1 X80.542 Y90.024 E2.66270
G1 X80.556 Y89.636 E2.67746
