; generated by Slic3r 1.2.9 on 2017-11-19 at 14:44:04

; external perimeters extrusion width = 0.40mm
; perimeters extrusion width = 0.56mm
; infill extrusion width = 0.56mm
; solid infill extrusion width = 0.56mm
; top infill extrusion width = 0.56mm

M107
M190 S95 ; set bed temperature
M104 S245 ; set temperature
G28 ; home all axes
G1 Z5 F5000 ; lift nozzle

M109 S245 ; wait for temperature to be reached
G21 ; set units to millimeters
G90 ; use absolute coordinates
M82 ; use absolute distances for extrusion
G92 E0
G1 Z0.200 F6000.000
G1 E-1.00000 F2400.00000
G92 E0
G1 X74.868 Y72.404 F6000.000
G1 E1.00000 F2400.00000
G1 X75.596 Y71.707 E1.03601 F1800.000
G1 X76.165 Y71.248 E1.06211
G1 X77.001 Y70.685 E1.09812
G1 X77.241 Y70.545 E1.10804
G1 X78.128 Y70.097 E1.14354
G1 X78.819 Y69.820 E1.17014
G1 X79.082 Y69.729 E1.18007
G1 X80.053 Y69.463 E1.21606
G1 X80.772 Y69.330 E1.24217
G1 X81.775 Y69.232 E1.27817
G1 X88.529 Y69.022 E1.51960
G1 X90.986 Y69.022 E1.60738
G1 X97.741 Y69.232 E1.84883 F1800.000
G1 X98.744 Y69.330 E1.88481
G1 X99.733 Y69.527 E1.92084
G1 X100.683 Y69.815 E1.95633
G1 X101.375 Y70.092 E1.98293
G1 X101.627 Y70.207 E1.99285
G1 X102.514 Y70.685 E2.02885
G1 X103.350 Y71.248 E2.06486
G1 X103.919 Y71.707 E2.09096
G1 X104.647 Y72.404 E2.12697
G1 X105.302 Y73.170 E2.16298
G1 X105.469 Y73.392 E2.17290
G1 X106.015 Y74.222 E2.20841
G1 X106.370 Y74.876 E2.23500
G1 X112.036 Y87.734 E2.73699
G1 X112.434 Y88.830 E2.77862
G1 X112.566 Y89.278 E2.79533
G1 X112.757 Y90.072 E2.82451
G1 X112.941 Y91.223 E2.86614
G1 X112.986 Y91.689 E2.88286
G1 X113.023 Y92.505 E2.91203
G1 X113.008 Y93.321 E2.94121
G1 X112.941 Y94.135 E2.97038
G1 X112.757 Y95.286 E3.01202
G1 X112.566 Y96.080 E3.04119
G1 X112.434 Y96.529 E3.05791
G1 X112.166 Y97.300 E3.08708
G1 X111.848 Y98.052 E3.11625
G1 X111.314 Y99.088 E3.15789
G1 X110.885 Y99.783 E3.18707
G1 X110.413 Y100.450 E3.21624
G1 X110.124 Y100.817 E3.23295
G1 X109.588 Y101.433 E3.26213
G1 X109.014 Y102.014 E3.29131
G1 X108.404 Y102.557 E3.32048
G1 X107.761 Y103.060 E3.34966
G1 X107.087 Y103.522 E3.37883
G1 X106.385 Y103.940 E3.40801
G1 X105.855 Y104.219 E3.42943
G1 X93.983 Y110.064 E3.90218
G1 X93.487 Y110.274 E3.92142
G1 X92.787 Y110.521 E3.94794
G1 X91.870 Y110.761 E3.98179
G1 X91.138 Y110.888 E4.00833
G1 X90.399 Y110.962 E4.03487
G1 X89.861 Y110.982 E4.05411
G1 X89.118 Y110.962 E4.08065
G1 X88.379 Y110.888 E4.10719
G1 X87.649 Y110.761 E4.13369
G1 X86.927 Y110.580 E4.16026
G1 X86.221 Y110.347 E4.18680
G1 X85.276 Y109.942 E4.22356
G1 X74.684 Y104.832 E4.64371
G1 X73.939 Y104.455 E4.67353
G1 X72.938 Y103.850 E4.71532
G1 X72.280 Y103.382 E4.74417
G1 X71.929 Y103.107 E4.76008
G1 X71.318 Y102.580 E4.78893
G1 X70.490 Y101.753 E4.83072
G1 X69.963 Y101.141 E4.85958
G1 X69.688 Y100.790 E4.87548
G1 X69.221 Y100.132 E4.90434
G1 X68.616 Y99.131 E4.94613
G1 X68.409 Y98.737 E4.96204
G1 X68.067 Y98.005 E4.99089
G1 X67.652 Y96.911 E5.03268
G1 X67.518 Y96.478 E5.04890
G1 X67.316 Y95.705 E5.07742
G1 X67.160 Y94.912 E5.10630
G1 X67.019 Y93.751 E5.14809
G1 X66.992 Y93.307 E5.16399
G1 X66.981 Y92.499 E5.19283
G1 X67.019 Y91.692 E5.22170
G1 X67.160 Y90.531 E5.26349
G1 X67.240 Y90.093 E5.27940
G1 X67.422 Y89.307 E5.30821
G1 X67.652 Y88.532 E5.33711
G1 X67.899 Y87.846 E5.36316
G1 X72.835 Y75.560 E5.83619
G1 X73.145 Y74.876 E5.86300
G1 X73.637 Y73.996 E5.89901
G1 X74.213 Y73.169 E5.93503
G1 X74.828 Y72.448 E5.96887
G1 X75.205 Y72.713 F6000.000
G1 X75.900 Y72.048 E6.00326 F1800.000
G1 X76.434 Y71.618 E6.02775
G1 X77.232 Y71.079 E6.06214
G1 X77.471 Y70.939 E6.07206
G1 X78.319 Y70.513 E6.10594
G1 X78.967 Y70.252 E6.13092
G1 X79.230 Y70.162 E6.14085
G1 X80.158 Y69.907 E6.17523
G1 X81.107 Y69.746 E6.20962
G1 X81.790 Y69.689 E6.23410
G1 X88.543 Y69.479 E6.47548
G1 X90.972 Y69.479 E6.56225
G1 X97.726 Y69.689 E6.80365 F1800.000
G1 X98.683 Y69.783 E6.83802
G1 X99.628 Y69.971 E6.87242
G1 X100.535 Y70.248 E6.90630
G1 X101.184 Y70.507 E6.93128
G1 X101.436 Y70.623 E6.94120
G1 X102.284 Y71.079 E6.97558
G1 X103.082 Y71.618 E7.00997
G1 X103.615 Y72.048 E7.03446
G1 X104.311 Y72.713 E7.06884
G1 X104.937 Y73.444 E7.10323
G1 X105.104 Y73.666 E7.11315
G1 X105.625 Y74.459 E7.14704
G1 X105.958 Y75.074 E7.17202
G1 X111.612 Y87.904 E7.67294
G1 X112.000 Y88.972 E7.71354
G1 X112.124 Y89.393 E7.72921
G1 X112.308 Y90.159 E7.75735
G1 X112.488 Y91.281 E7.79795
G1 X112.529 Y91.718 E7.81363
G1 X112.565 Y92.505 E7.84177
G1 X112.552 Y93.292 E7.86990
G1 X112.488 Y94.077 E7.89804
G1 X112.308 Y95.199 E7.93865
G1 X112.124 Y95.965 E7.96678
G1 X112.000 Y96.386 E7.98246
G1 X111.741 Y97.130 E8.01060
G1 X111.436 Y97.856 E8.03873
G1 X110.915 Y98.866 E8.07934
G1 X110.501 Y99.536 E8.10748
G1 X110.045 Y100.179 E8.13562
G1 X109.774 Y100.523 E8.15129
G1 X109.257 Y101.118 E8.17943
G1 X108.703 Y101.678 E8.20757
G1 X108.116 Y102.202 E8.23571
G1 X107.495 Y102.688 E8.26385
G1 X106.846 Y103.133 E8.29199
G1 X106.169 Y103.537 E8.32013
G1 X105.653 Y103.809 E8.34100
G1 X93.789 Y109.650 E8.81343
G1 X93.324 Y109.847 E8.83147
G1 X92.655 Y110.083 E8.85680
G1 X91.771 Y110.315 E8.88946
G1 X91.072 Y110.436 E8.91481
G1 X90.366 Y110.506 E8.94015
G1 X89.861 Y110.525 E8.95820
G1 X89.152 Y110.506 E8.98354
G1 X88.446 Y110.436 E9.00889
G1 X87.748 Y110.315 E9.03420
G1 X87.059 Y110.142 E9.05958
G1 X86.385 Y109.920 E9.08493
G1 X85.474 Y109.530 E9.12032
G1 X74.882 Y104.420 E9.54046
G1 X74.164 Y104.057 E9.56923
G1 X73.186 Y103.466 E9.61004
G1 X72.551 Y103.014 E9.63790
G1 X72.222 Y102.756 E9.65283
G1 X71.631 Y102.247 E9.68069
G1 X70.823 Y101.439 E9.72150
G1 X70.314 Y100.848 E9.74936
G1 X70.057 Y100.520 E9.76428
G1 X69.605 Y99.884 E9.79215
G1 X69.014 Y98.906 E9.83296
G1 X68.820 Y98.537 E9.84788
G1 X68.489 Y97.830 E9.87575
G1 X68.084 Y96.762 E9.91655
G1 X67.958 Y96.354 E9.93180
G1 X67.763 Y95.609 E9.95932
G1 X67.612 Y94.843 E9.98721
G1 X67.474 Y93.709 E10.02801
G1 X67.449 Y93.293 E10.04292
G1 X67.438 Y92.513 E10.07078
G1 X67.474 Y91.734 E10.09866
G1 X67.612 Y90.600 E10.13947
G1 X67.687 Y90.189 E10.15439
G1 X67.863 Y89.430 E10.18222
G1 X68.084 Y88.681 E10.21013
G1 X68.323 Y88.016 E10.23536
G1 X73.259 Y75.730 E10.70840
G1 X73.558 Y75.074 E10.73416
G1 X74.028 Y74.233 E10.76855
G1 X74.579 Y73.444 E10.80296
G1 X75.164 Y72.757 E10.83518
G1 X75.541 Y73.023 F6000.000
G1 X75.997 Y72.574 E10.85804 F1800.000
G1 X76.703 Y71.987 E10.89082
G1 X77.463 Y71.474 E10.92359
G1 X77.702 Y71.334 E10.93351
G1 X78.509 Y70.928 E10.96578
G1 X79.116 Y70.684 E10.98914
G1 X79.379 Y70.594 E10.99907
G1 X80.263 Y70.352 E11.03182
G1 X80.893 Y70.236 E11.05469
G1 X81.806 Y70.146 E11.08746
G1 X88.557 Y69.936 E11.32879
G1 X90.958 Y69.936 E11.41455
G1 X97.710 Y70.146 E11.65590 F1800.000
G1 X98.623 Y70.236 E11.68865
G1 X99.522 Y70.416 E11.72144
G1 X100.386 Y70.680 E11.75370
G1 X100.993 Y70.922 E11.77706
G1 X101.246 Y71.038 E11.78697
G1 X102.053 Y71.474 E11.81974
G1 X102.813 Y71.987 E11.85251
G1 X103.311 Y72.389 E11.87538
G1 X103.974 Y73.023 E11.90815
G1 X104.572 Y73.719 E11.94092
G1 X104.738 Y73.941 E11.95084
G1 X105.234 Y74.696 E11.98311
G1 X105.545 Y75.271 E12.00647
G1 X111.187 Y88.074 E12.50632
G1 X111.566 Y89.115 E12.54588
G1 X111.681 Y89.508 E12.56052
G1 X111.859 Y90.245 E12.58762
G1 X112.034 Y91.339 E12.62719
G1 X112.073 Y91.747 E12.64183
G1 X112.108 Y92.505 E12.66893
G1 X112.095 Y93.263 E12.69603
G1 X112.034 Y94.019 E12.72314
G1 X111.859 Y95.113 E12.76270
G1 X111.681 Y95.850 E12.78980
G1 X111.566 Y96.244 E12.80444
G1 X111.317 Y96.960 E12.83155
G1 X111.023 Y97.659 E12.85865
G1 X110.515 Y98.644 E12.89821
G1 X110.116 Y99.289 E12.92531
G1 X109.677 Y99.908 E12.95242
G1 X109.199 Y100.497 E12.97952
G1 X108.685 Y101.055 E13.00663
G1 X108.137 Y101.579 E13.03373
G1 X107.827 Y101.847 E13.04837
G1 X107.230 Y102.316 E13.07547
G1 X106.605 Y102.745 E13.10257
G1 X105.954 Y103.134 E13.12968
G1 X105.451 Y103.399 E13.14999
G1 X93.780 Y109.149 E13.61480
G1 X93.161 Y109.420 E13.63895
G1 X92.523 Y109.646 E13.66309
G1 X91.671 Y109.868 E13.69456
G1 X91.005 Y109.984 E13.71871
G1 X90.332 Y110.050 E13.74286
G1 X89.861 Y110.068 E13.75972
G1 X89.185 Y110.050 E13.78387
G1 X88.512 Y109.984 E13.80802
G1 X87.847 Y109.869 E13.83214
G1 X87.190 Y109.705 E13.85633
G1 X86.548 Y109.493 E13.88048
G1 X85.673 Y109.118 E13.91450
G1 X75.081 Y104.009 E14.33464
G1 X74.388 Y103.658 E14.36237
G1 X73.434 Y103.082 E14.40218
G1 X72.515 Y102.405 E14.44299
G1 X71.944 Y101.914 E14.46987
G1 X71.156 Y101.126 E14.50969
G1 X70.665 Y100.556 E14.53657
G1 X69.988 Y99.636 E14.57738
G1 X69.412 Y98.682 E14.61720
G1 X68.912 Y97.655 E14.65800
G1 X68.517 Y96.613 E14.69782
G1 X68.210 Y95.513 E14.73860
G1 X68.063 Y94.775 E14.76551
G1 X67.929 Y93.668 E14.80533
G1 X67.895 Y92.527 E14.84611
G1 X67.929 Y91.775 E14.87301
G1 X68.063 Y90.668 E14.91283
G1 X68.303 Y89.553 E14.95360
G1 X68.517 Y88.830 E14.98052
G1 X68.747 Y88.187 E15.00494
G1 X73.683 Y75.901 E15.47797
G1 X73.970 Y75.271 E15.50269
G1 X74.418 Y74.471 E15.53546
G1 X74.944 Y73.718 E15.56825
G1 X75.500 Y73.067 E15.59886
G1 E14.59886 F2400.00000
G92 E0
G1 X93.568 Y73.059 F6000.000
G1 E1.00000 F2400.00000
G1 X93.859 Y73.107 E1.01053 F1800.000
G1 X94.494 Y72.803 E1.03567
G1 X95.160 Y72.561 E1.06097
G1 X95.635 Y72.433 E1.07858
G1 X96.332 Y72.307 E1.10387
G1 X97.253 Y72.246 E1.13684
G1 X97.960 Y72.281 E1.16214
G1 X98.660 Y72.386 E1.18743
G1 X99.140 Y72.499 E1.20505
G1 X99.813 Y72.719 E1.23033
G1 X100.461 Y73.005 E1.25563
G1 X101.077 Y73.353 E1.28091
G1 X101.823 Y73.896 E1.31389
G1 X102.345 Y74.375 E1.33919
G1 X102.816 Y74.903 E1.36448
G1 X103.112 Y75.297 E1.38209
G1 X103.489 Y75.897 E1.40738
G1 X103.887 Y76.730 E1.44035
G1 X104.055 Y77.193 E1.45797
G1 X104.239 Y77.877 E1.48325
G1 X104.375 Y78.790 E1.51623
G1 X104.400 Y79.282 E1.53384
G1 X104.375 Y79.989 E1.55913
G1 X104.239 Y80.902 E1.59211
G1 X104.055 Y81.586 E1.61740
G1 X103.887 Y82.049 E1.63500
G1 X103.591 Y82.692 E1.66030
G1 X103.397 Y83.052 E1.67489
G1 X103.541 Y83.440 E1.68969
G1 X104.020 Y83.628 E1.70807
G1 X104.463 Y83.830 E1.72547
G1 X105.135 Y84.190 E1.75269
G1 X105.549 Y84.447 E1.77009
G1 X106.060 Y84.805 E1.79241
G1 X106.652 Y85.286 E1.81964
G1 X107.009 Y85.616 E1.83703
G1 X107.443 Y86.065 E1.85934
G1 X107.848 Y86.541 E1.88166
G1 X108.222 Y87.041 E1.90397
G1 X108.634 Y87.683 E1.93120
G1 X108.934 Y88.231 E1.95353
G1 X109.143 Y88.670 E1.97091
G1 X109.379 Y89.248 E1.99322
G1 X109.578 Y89.840 E2.01554
G1 X109.770 Y90.579 E2.04278
G1 X109.862 Y91.056 E2.06017
G1 X109.945 Y91.675 E2.08248
G1 X109.994 Y92.436 E2.10971
G1 X109.989 Y93.061 E2.13202
G1 X109.958 Y93.546 E2.14942
G1 X109.884 Y94.166 E2.17173
G1 X109.739 Y94.915 E2.19898
G1 X109.578 Y95.519 E2.22129
G1 X109.379 Y96.110 E2.24359
G1 X109.143 Y96.688 E2.26590
G1 X108.934 Y97.128 E2.28330
G1 X108.634 Y97.676 E2.30560
G1 X108.300 Y98.204 E2.32792
G1 X107.848 Y98.818 E2.35516
G1 X107.535 Y99.190 E2.37254
G1 X107.107 Y99.646 E2.39486
G1 X106.651 Y100.072 E2.41717
G1 X106.169 Y100.470 E2.43948
G1 X105.548 Y100.912 E2.46672
G1 X105.015 Y101.238 E2.48905
G1 X104.463 Y101.528 E2.51134
G1 X104.020 Y101.731 E2.52874
G1 X103.438 Y101.958 E2.55105
G1 X102.843 Y102.147 E2.57336
G1 X102.237 Y102.299 E2.59567
G1 X101.486 Y102.431 E2.62292
G1 X101.003 Y102.485 E2.64030
G1 X100.379 Y102.519 E2.66261
G1 X99.754 Y102.514 E2.68493
G1 X99.131 Y102.468 E2.70724
G1 X98.513 Y102.384 E2.72955
G1 X97.900 Y102.260 E2.75187
G1 X97.105 Y102.038 E2.78137
G1 X96.758 Y102.239 E2.79569
G1 X96.621 Y102.794 E2.81611
G1 X96.401 Y103.438 E2.84042
G1 X96.192 Y103.915 E2.85904
G1 X96.026 Y104.239 E2.87202
G1 X95.672 Y104.819 E2.89632
G1 X95.363 Y105.240 E2.91497
G1 X95.131 Y105.519 E2.92794
G1 X94.773 Y105.899 E2.94658
G1 X94.266 Y106.353 E2.97089
G1 X93.850 Y106.667 E2.98954
G1 X93.412 Y106.950 E3.00815
G1 X93.095 Y107.128 E3.02114
G1 X92.625 Y107.355 E3.03978
G1 X91.990 Y107.598 E3.06407
G1 X91.489 Y107.742 E3.08271
G1 X90.978 Y107.850 E3.10136
G1 X90.619 Y107.903 E3.11433
G1 X90.099 Y107.947 E3.13297
G1 X89.577 Y107.953 E3.15161
G1 X88.899 Y107.903 E3.17591
G1 X88.384 Y107.821 E3.19453
G1 X88.029 Y107.742 E3.20752
G1 X87.528 Y107.598 E3.22617
G1 X87.038 Y107.417 E3.24480
G1 X86.564 Y107.201 E3.26344
G1 X86.106 Y106.950 E3.28208
G1 X85.667 Y106.667 E3.30072
G1 X85.251 Y106.353 E3.31936
G1 X84.859 Y106.009 E3.33800
G1 X84.492 Y105.638 E3.35664
G1 X84.057 Y105.114 E3.38095
G1 X83.759 Y104.687 E3.39956
G1 X83.492 Y104.239 E3.41822
G1 X83.258 Y103.773 E3.43684
G1 X83.116 Y103.438 E3.44983
G1 X82.952 Y102.974 E3.46741
G1 X82.649 Y102.803 E3.47983
G1 X82.148 Y102.906 E3.49811
G1 X81.531 Y102.996 E3.52041
G1 X80.908 Y103.049 E3.54274
G1 X80.283 Y103.064 E3.56507
G1 X79.658 Y103.041 E3.58741
G1 X79.036 Y102.980 E3.60972
G1 X78.420 Y102.883 E3.63202
G1 X77.810 Y102.747 E3.65435
G1 X77.334 Y102.615 E3.67198
G1 X76.743 Y102.415 E3.69430
G1 X76.164 Y102.180 E3.71661
G1 X75.600 Y101.910 E3.73894
G1 X75.054 Y101.606 E3.76126
G1 X74.528 Y101.270 E3.78358
G1 X74.022 Y100.903 E3.80590
G1 X73.540 Y100.506 E3.82821
G1 X73.082 Y100.081 E3.85053
G1 X72.651 Y99.629 E3.87285
G1 X72.248 Y99.151 E3.89517
G1 X71.874 Y98.650 E3.91750
G1 X71.532 Y98.128 E3.93981
G1 X71.222 Y97.586 E3.96213
G1 X70.945 Y97.026 E3.98445
G1 X70.655 Y96.328 E4.01145
G1 X70.455 Y95.736 E4.03377
G1 X70.291 Y95.133 E4.05608
G1 X70.164 Y94.521 E4.07843
G1 X70.074 Y93.903 E4.10072
G1 X70.021 Y93.281 E4.12305
G1 X70.006 Y92.656 E4.14536
G1 X70.029 Y92.032 E4.16769
G1 X70.090 Y91.410 E4.19002
G1 X70.188 Y90.792 E4.21234
G1 X70.323 Y90.183 E4.23463
G1 X70.494 Y89.582 E4.25698
G1 X70.702 Y88.993 E4.27930
G1 X70.945 Y88.417 E4.30161
G1 X71.222 Y87.857 E4.32394
G1 X71.532 Y87.315 E4.34625
G1 X71.874 Y86.792 E4.36857
G1 X72.248 Y86.291 E4.39090
G1 X72.651 Y85.814 E4.41321
G1 X73.082 Y85.362 E4.43553
G1 X73.539 Y84.937 E4.45783
G1 X74.022 Y84.540 E4.48017
G1 X74.528 Y84.173 E4.50249
G1 X75.054 Y83.837 E4.52481
G1 X75.484 Y83.594 E4.54244
G1 X75.963 Y83.357 E4.56154
G1 X76.083 Y82.985 E4.57548
G1 X75.711 Y82.248 E4.60497
G1 X75.461 Y81.586 E4.63027
G1 X75.277 Y80.902 E4.65556
G1 X75.161 Y80.204 E4.68084
G1 X75.115 Y79.282 E4.71383
G1 X75.161 Y78.575 E4.73912
G1 X75.234 Y78.088 E4.75674
G1 X75.398 Y77.399 E4.78203
G1 X75.628 Y76.730 E4.80732
G1 X75.924 Y76.086 E4.83261
G1 X76.219 Y75.580 E4.85356
G1 X76.403 Y75.297 E4.86559
G1 X76.837 Y74.738 E4.89089
G1 X77.324 Y74.224 E4.91618
G1 X77.859 Y73.761 E4.94147
G1 X78.438 Y73.353 E4.96677
G1 X78.864 Y73.104 E4.98438
G1 X79.702 Y72.719 E5.01735
G1 X80.169 Y72.559 E5.03496
G1 X80.855 Y72.386 E5.06025
G1 X81.770 Y72.263 E5.09322
G1 X82.262 Y72.246 E5.11083
G1 X82.969 Y72.282 E5.13612
G1 X83.669 Y72.387 E5.16142
G1 X84.561 Y72.628 E5.19439
G1 X85.021 Y72.803 E5.21200
G1 X85.656 Y73.107 E5.23715
G1 X85.947 Y73.059 E5.24767
G1 X86.959 Y72.047 E5.29881
G1 X92.556 Y72.047 E5.49878
G1 X93.526 Y73.017 E5.54777
G1 E4.54777 F2400.00000
G92 E0
G1 X85.722 Y73.668 F6000.000
G1 E1.00000 F2400.00000
G1 X86.027 Y73.626 E1.01098 F1800.000
G1 X87.148 Y72.504 E1.06765
G1 X92.367 Y72.504 E1.25409
G1 X93.489 Y73.626 E1.31076
G1 X93.793 Y73.668 E1.32173
G1 X94.069 Y73.513 E1.33306
G1 X94.667 Y73.226 E1.35673
G1 X95.290 Y73.000 E1.38041
G1 X95.932 Y72.836 E1.40408
G1 X96.396 Y72.759 E1.42088
G1 X96.946 Y72.714 E1.44062
G1 X97.719 Y72.720 E1.46823
G1 X98.566 Y72.833 E1.49876
G1 X99.024 Y72.941 E1.51557
G1 X99.654 Y73.148 E1.53924
G1 X100.431 Y73.505 E1.56979
G1 X100.998 Y73.847 E1.59346
G1 X101.378 Y74.124 E1.61026
G1 X101.879 Y74.558 E1.63393
G1 X102.334 Y75.039 E1.65760
G1 X102.848 Y75.723 E1.68816
G1 X103.184 Y76.294 E1.71183
G1 X103.461 Y76.896 E1.73550
G1 X103.677 Y77.522 E1.75918
G1 X103.831 Y78.167 E1.78285
G1 X103.920 Y78.824 E1.80653
G1 X103.943 Y79.293 E1.82332
G1 X103.920 Y79.955 E1.84699
G1 X103.831 Y80.612 E1.87067
G1 X103.621 Y81.441 E1.90122
G1 X103.387 Y82.061 E1.92490
G1 X103.092 Y82.654 E1.94857
G1 X102.709 Y83.262 E1.97421
G1 X102.861 Y83.696 E1.99064
G1 X103.723 Y83.999 E2.02327
G1 X104.266 Y84.243 E2.04455
G1 X104.793 Y84.521 E2.06582
G1 X105.301 Y84.831 E2.08711
G1 X105.789 Y85.174 E2.10838
G1 X106.253 Y85.546 E2.12966
G1 X106.694 Y85.947 E2.15094
G1 X107.190 Y86.467 E2.17661
G1 X107.570 Y86.926 E2.19790
G1 X107.919 Y87.408 E2.21917
G1 X108.238 Y87.911 E2.24044
