; generated by Slic3r 1.2.9 on 2017-11-14 at 15:00:25

; external perimeters extrusion width = 0.40mm
; perimeters extrusion width = 0.56mm
; infill extrusion width = 0.56mm
; solid infill extrusion width = 0.56mm
; top infill extrusion width = 0.56mm
; support material extrusion width = 0.40mm

M107
M190 S95 ; set bed temperature
M104 S245 ; set temperature
G28 ; home all axes
G1 Z5 F5000 ; lift nozzle

M109 S245 ; wait for temperature to be reached
G21 ; set units to millimeters
G90 ; use absolute coordinates
M82 ; use absolute distances for extrusion
G92 E0
G1 Z0.150 F6000.000
G1 E-1.00000 F2400.00000
G92 E0
G1 X21.338 Y21.299 F6000.000
G1 E1.00000 F2400.00000
G1 X23.059 Y19.575 E1.04894 F1800.000
G1 X25.714 Y17.906 E1.11197
G1 X27.710 Y17.208 E1.15446
G1 X30.440 Y16.826 E1.20985
G1 X30.839 Y16.850 E1.21790
G1 X33.300 Y17.451 E1.26881 F1800.000
G1 X34.049 Y17.791 E1.28534
G1 X34.577 Y18.052 E1.29718
G1 X36.182 Y19.159 E1.33636
G1 X36.643 Y19.588 E1.34900
G1 X114.610 Y96.407 E3.54856
G1 X118.212 Y100.008 E3.65091
G1 X119.624 Y101.423 E3.69109
G1 X143.609 Y125.828 E4.37873
G1 X159.599 Y142.582 E4.84414
G1 X162.026 Y145.390 E4.91872
G1 X162.613 Y146.173 E4.93840
G1 X163.045 Y146.842 E4.95440
G1 X163.475 Y147.610 E4.97209
G1 X163.850 Y148.391 E4.98951
G1 X164.097 Y148.969 E5.00212
G1 X164.425 Y149.844 E5.02091
G1 X164.628 Y150.477 E5.03428
G1 X164.897 Y151.471 E5.05497
G1 X165.121 Y153.824 E5.10245
G1 X164.396 Y156.454 E5.15730
G1 X163.201 Y158.838 E5.21087
G1 X161.888 Y160.658 E5.25598
G1 X160.350 Y162.196 E5.29968
G1 X159.913 Y162.597 E5.31161
G1 X158.584 Y163.719 E5.34655
G1 X156.548 Y164.917 E5.39404
G1 X154.229 Y165.373 E5.44152
G1 X152.218 Y165.132 E5.48224
G1 X150.191 Y164.585 E5.52442
G1 X149.171 Y164.223 E5.54617
G1 X148.353 Y163.856 E5.56418
G1 X147.117 Y163.262 E5.59174
G1 X145.531 Y162.214 E5.62994
G1 X143.730 Y160.630 E5.67815
G1 X136.967 Y154.219 E5.86542
G1 X26.298 Y49.093 E8.93285
G1 X20.039 Y42.837 E9.11070
G1 X18.673 Y40.909 E9.15818
G1 X18.060 Y38.922 E9.19996
G1 X16.923 Y31.436 E9.35213
G1 X16.966 Y29.074 E9.39961
G1 X17.588 Y27.231 E9.43869
G1 X18.361 Y25.703 E9.47311
G1 X19.666 Y23.354 E9.52711
G1 X20.836 Y21.802 E9.56616
G1 X21.296 Y21.341 E9.57925
G1 X21.581 Y21.541 F6000.000
G1 X23.301 Y19.817 E9.62819 F1800.000
G1 X25.827 Y18.229 E9.68814
G1 X27.823 Y17.531 E9.73063
G1 X30.419 Y17.168 E9.78332
G1 X30.819 Y17.192 E9.79137
G1 X33.160 Y17.764 E9.83980 F1800.000
G1 X33.905 Y18.103 E9.85624
G1 X34.424 Y18.359 E9.86787
G1 X35.950 Y19.412 E9.90513
G1 X36.402 Y19.832 E9.91754
G1 X114.370 Y96.651 E12.11710
G1 X117.970 Y100.250 E12.21939
G1 X119.380 Y101.663 E12.25951
G1 X143.365 Y126.068 E12.94715
G1 X159.339 Y142.806 E13.41212
G1 X161.766 Y145.614 E13.48671
G1 X162.325 Y146.359 E13.50542
G1 X162.757 Y147.028 E13.52142
G1 X163.166 Y147.759 E13.53825
G1 X163.541 Y148.540 E13.55567
G1 X163.776 Y149.089 E13.56766
G1 X164.104 Y149.965 E13.58645
G1 X164.298 Y150.567 E13.59917
G1 X164.566 Y151.561 E13.61986
G1 X164.775 Y153.855 E13.66616
G1 X164.089 Y156.301 E13.71720
G1 X162.895 Y158.684 E13.77077
G1 X161.645 Y160.416 E13.81369
G1 X160.108 Y161.953 E13.85738
G1 X159.692 Y162.335 E13.86873
G1 X158.363 Y163.457 E13.90368
G1 X156.372 Y164.617 E13.94998
G1 X154.106 Y165.033 E13.99628
G1 X152.307 Y164.801 E14.03273
G1 X150.281 Y164.254 E14.07491
G1 X149.310 Y163.909 E14.09560
G1 X148.502 Y163.547 E14.11341
G1 X147.266 Y162.953 E14.14097
G1 X145.757 Y161.957 E14.17730
G1 X143.966 Y160.381 E14.22524
G1 X137.203 Y153.970 E14.41251
G1 X26.534 Y48.844 E17.47993
G1 X20.281 Y42.594 E17.65761
G1 X18.957 Y40.709 E17.70391
G1 X18.399 Y38.871 E17.74251
G1 X17.262 Y31.385 E17.89468
G1 X17.313 Y29.081 E17.94098
G1 X17.895 Y27.385 E17.97701
G1 X18.661 Y25.870 E18.01113
G1 X19.966 Y23.520 E18.06514
G1 X21.078 Y22.044 E18.10228
G1 X21.539 Y21.583 E18.11537
G1 X21.824 Y21.783 F6000.000
G1 X23.544 Y20.059 E18.16431 F1800.000
G1 X25.940 Y18.553 E18.22119
G1 X27.936 Y17.855 E18.26368
G1 X30.399 Y17.511 E18.31367
G1 X30.799 Y17.534 E18.32172
G1 X33.020 Y18.077 E18.36766 F1800.000
G1 X33.761 Y18.414 E18.38402
G1 X34.270 Y18.665 E18.39543
G1 X35.719 Y19.664 E18.43079
G1 X36.162 Y20.076 E18.44295
G1 X114.129 Y96.895 E20.64251
G1 X117.727 Y100.492 E20.74475
G1 X119.135 Y101.904 E20.78481
G1 X143.120 Y126.308 E21.47245
G1 X159.080 Y143.030 E21.93698
G1 X161.507 Y145.838 E22.01157
G1 X162.037 Y146.545 E22.02932
G1 X162.469 Y147.214 E22.04532
G1 X162.857 Y147.907 E22.06129
G1 X163.232 Y148.688 E22.07870
G1 X163.455 Y149.209 E22.09009
G1 X163.783 Y150.085 E22.10887
G1 X163.967 Y150.656 E22.12094
G1 X164.235 Y151.650 E22.14163
G1 X164.428 Y153.886 E22.18672
G1 X163.783 Y156.147 E22.23398
G1 X162.588 Y158.530 E22.28755
G1 X161.403 Y160.173 E22.32827
G1 X159.865 Y161.711 E22.37196
G1 X159.471 Y162.073 E22.38273
G1 X158.142 Y163.195 E22.41768
G1 X156.198 Y164.316 E22.46276
G1 X153.986 Y164.690 E22.50785
G1 X152.396 Y164.470 E22.54010
G1 X150.370 Y163.923 E22.58228
G1 X149.449 Y163.596 E22.60191
G1 X148.650 Y163.238 E22.61951
G1 X147.414 Y162.644 E22.64707
G1 X145.983 Y161.699 E22.68154
G1 X144.201 Y160.132 E22.72921
G1 X137.439 Y153.721 E22.91647
G1 X26.771 Y48.596 E25.98389
G1 X20.523 Y42.352 E26.16139
G1 X19.243 Y40.510 E26.20648
G1 X18.738 Y38.819 E26.24193
G1 X17.601 Y31.333 E26.39410
G1 X17.661 Y29.090 E26.43919
G1 X18.201 Y27.539 E26.47220
G1 X18.960 Y26.036 E26.50603
G1 X20.266 Y23.687 E26.56004
G1 X21.321 Y22.287 E26.59527
G1 X21.781 Y21.826 E26.60836
G1 E25.60836 F2400.00000
G92 E0
G1 X34.235 Y47.732 F6000.000
G1 E1.00000 F2400.00000
G1 X34.045 Y47.687 E1.00391 F1800.000
G1 X30.973 Y48.707 E1.06896
G1 X28.758 Y47.597 E1.11875
G1 X28.348 Y47.471 E1.12737
G1 X28.123 Y47.279 E1.13332
G1 X27.464 Y46.949 E1.14813
G1 X27.354 Y46.617 E1.15516
G1 X27.305 Y46.541 E1.15697
G1 X26.931 Y46.209 E1.16702
G1 X26.837 Y46.020 E1.17126
G1 X25.490 Y44.673 E1.20954
G1 X21.957 Y41.140 E1.30994
G1 X21.334 Y40.818 E1.32403
G1 X20.215 Y37.450 E1.39537
G1 X21.361 Y35.163 E1.44678
G1 X21.351 Y34.980 E1.45044
G1 X20.733 Y34.029 E1.47325
G1 X20.539 Y33.883 E1.47812
G1 X20.325 Y33.405 E1.48865
G1 X20.176 Y33.172 E1.49420
G1 X20.052 Y32.796 E1.50216
G1 X19.577 Y31.735 E1.52552
G1 X19.389 Y30.801 E1.54467
G1 X19.411 Y29.764 E1.56550
G1 X19.641 Y28.840 E1.58464
G1 X21.302 Y25.526 E1.65914
G1 X21.385 Y25.498 E1.66091
G1 X21.488 Y25.409 E1.66365
G1 X21.936 Y24.516 E1.68371
G1 X22.216 Y24.092 E1.69393
G1 X22.573 Y23.669 E1.70505
G1 X22.945 Y23.322 E1.71527
G1 X24.010 Y22.542 E1.74182
G1 X24.063 Y22.480 E1.74346
G1 X24.519 Y21.570 E1.76389
G1 X26.090 Y20.370 E1.80364
G1 X26.419 Y20.303 E1.81037
G1 X26.589 Y20.195 E1.81443
G1 X27.042 Y20.104 E1.82371
G1 X27.593 Y19.764 E1.83672
G1 X28.224 Y19.735 E1.84942
G1 X29.908 Y19.147 E1.88526
G1 X30.822 Y19.387 E1.90425
G1 X31.432 Y19.415 E1.91651
G1 X32.132 Y19.728 E1.93194
G1 X32.440 Y19.811 E1.93835
G1 X32.516 Y19.878 E1.94037
G1 X33.466 Y20.325 E1.96147
G1 X33.544 Y20.393 E1.96356
G1 X33.916 Y20.580 E1.97192
G1 X34.070 Y20.631 E1.97518
G1 X34.146 Y20.695 E1.97717
G1 X34.264 Y20.754 E1.97982
G1 X34.716 Y21.276 E1.99369
G1 X40.072 Y26.616 E2.14568
G1 X61.445 Y48.064 E2.75418
G1 X87.761 Y74.380 E3.50207
G1 X110.409 Y96.919 E4.14416
G1 X110.489 Y96.964 E4.14602
G1 X112.065 Y97.366 E4.17871
G1 X112.937 Y98.348 E4.20510
G1 X114.049 Y99.459 E4.23669
G1 X114.154 Y99.515 E4.23908
G1 X114.547 Y99.957 E4.25096
G1 X115.005 Y100.415 E4.26398
G1 X115.090 Y100.568 E4.26750
G1 X115.272 Y100.773 E4.27301
G1 X115.453 Y100.949 E4.27809
G1 X115.610 Y101.018 E4.28153
G1 X115.998 Y101.408 E4.29258
G1 X116.427 Y101.763 E4.30378
G1 X116.556 Y101.966 E4.30860
G1 X118.296 Y103.710 E4.35812
G1 X118.910 Y104.912 E4.38523
G1 X118.997 Y105.454 E4.39627
G1 X119.047 Y105.550 E4.39845
G1 X126.737 Y113.236 E4.61693
G1 X139.788 Y126.343 E4.98864
G1 X139.895 Y126.394 E4.99102
G1 X140.213 Y126.428 E4.99744
G1 X141.967 Y127.597 E5.03982
G1 X142.236 Y128.088 E5.05107
G1 X142.383 Y128.212 E5.05492
G1 X142.619 Y128.780 E5.06729
G1 X142.713 Y128.875 E5.06996
G1 X142.838 Y128.958 E5.07298
G1 X143.261 Y129.170 E5.08250
G1 X143.354 Y129.450 E5.08842
G1 X143.421 Y129.539 E5.09066
G1 X144.803 Y130.496 E5.12444
G1 X145.201 Y131.451 E5.14523
G1 X145.254 Y131.521 E5.14701
G1 X146.202 Y132.262 E5.17119
G1 X146.544 Y132.969 E5.18697
G1 X146.624 Y133.050 E5.18925
G1 X146.684 Y133.080 E5.19060
G1 X146.758 Y133.166 E5.19288
G1 X147.266 Y133.420 E5.20430
G1 X147.327 Y133.604 E5.20819
G1 X147.394 Y133.693 E5.21043
G1 X147.697 Y133.903 E5.21783
G1 X147.739 Y134.005 E5.22006
G1 X147.801 Y134.082 E5.22204
G1 X148.796 Y134.770 E5.24634
G1 X149.149 Y135.620 E5.26483
G1 X149.243 Y135.715 E5.26751
G1 X149.300 Y135.739 E5.26875
G1 X150.500 Y137.010 E5.30388
G1 X151.376 Y137.461 E5.32369
G1 X151.619 Y138.192 E5.33918
G1 X151.686 Y138.282 E5.34142
G1 X152.789 Y139.045 E5.36836
G1 X153.058 Y139.671 E5.38206
G1 X153.861 Y140.625 E5.40713
G1 X154.985 Y141.311 E5.43359
G1 X155.621 Y142.391 E5.45877
G1 X155.758 Y142.491 E5.46217
G1 X155.791 Y142.590 E5.46428
G1 X155.857 Y142.679 E5.46652
G1 X156.782 Y143.319 E5.48910
G1 X156.824 Y143.422 E5.49134
G1 X156.886 Y143.499 E5.49332
G1 X157.881 Y144.187 E5.51762
G1 X158.301 Y145.196 E5.53958
G1 X158.388 Y145.287 E5.54212
G1 X158.473 Y145.328 E5.54403
G1 X159.652 Y146.654 E5.57967
G1 X160.383 Y147.034 E5.59623
G1 X160.507 Y147.407 E5.60413
G1 X160.590 Y147.507 E5.60674
G1 X161.560 Y149.527 E5.65177
G1 X161.780 Y149.732 E5.65781
G1 X162.541 Y152.549 E5.71645
G1 X162.605 Y153.329 E5.73218
G1 X162.520 Y154.177 E5.74930
G1 X162.301 Y154.929 E5.76503
G1 X160.121 Y159.279 E5.86282
G1 X159.271 Y159.562 E5.88082
G1 X159.168 Y159.651 E5.88357
G1 X158.583 Y160.817 E5.90977
G1 X157.733 Y161.099 E5.92777
G1 X157.630 Y161.188 E5.93051
G1 X157.254 Y161.938 E5.94737
G1 X153.886 Y163.057 E6.01870
G1 X153.179 Y162.703 E6.03458
G1 X153.087 Y162.685 E6.03646
G1 X152.989 Y162.693 E6.03845
G1 X151.431 Y162.272 E6.07088
G1 X151.033 Y162.253 E6.07889
G1 X148.706 Y161.219 E6.13006
G1 X148.627 Y161.152 E6.13215
G1 X147.377 Y160.551 E6.16002
G1 X146.076 Y159.087 E6.19936
G1 X144.888 Y158.478 E6.22619
G1 X144.689 Y157.880 E6.23886
G1 X144.600 Y157.777 E6.24161
G1 X143.886 Y157.419 E6.25767
G1 X143.767 Y157.062 E6.26523
G1 X143.666 Y156.953 E6.26822
G1 X143.345 Y156.819 E6.27520
G1 X142.109 Y155.534 E6.31103
G1 X142.001 Y155.284 E6.31651
G1 X141.146 Y154.395 E6.34129
G1 X141.074 Y154.202 E6.34542
G1 X140.987 Y154.105 E6.34804
G1 X139.727 Y153.474 E6.37636
G1 X139.609 Y153.117 E6.38392
G1 X139.507 Y153.008 E6.38691
G1 X139.186 Y152.874 E6.39389
G1 X137.951 Y151.590 E6.42972
G1 X137.842 Y151.340 E6.43520
G1 X136.987 Y150.451 E6.45998
G1 X136.916 Y150.258 E6.46412
G1 X136.829 Y150.161 E6.46673
G1 X135.569 Y149.529 E6.49505
G1 X135.373 Y148.939 E6.50755
G1 X135.310 Y148.853 E6.50969
G1 X134.586 Y148.323 E6.52772
G1 X134.473 Y148.022 E6.53419
G1 X134.374 Y147.920 E6.53704
G1 X134.065 Y147.791 E6.54377
G1 X132.829 Y146.506 E6.57960
G1 X132.757 Y146.313 E6.58374
G1 X132.671 Y146.216 E6.58635
G1 X131.411 Y145.585 E6.61467
G1 X131.224 Y145.022 E6.62658
G1 X131.147 Y144.926 E6.62906
G1 X130.476 Y144.525 E6.64476
G1 X130.002 Y143.911 E6.66034
G1 X129.907 Y143.847 E6.66266
G1 X128.752 Y142.646 E6.69613
G1 X128.279 Y142.431 E6.70658
G1 X127.053 Y141.145 E6.74228
G1 X126.689 Y140.155 E6.76348
G1 X126.648 Y140.092 E6.76498
G1 X114.798 Y128.296 E7.10100
G1 X105.934 Y119.431 E7.35292
G1 X105.817 Y119.379 E7.35550
G1 X104.944 Y119.338 E7.37306
G1 X104.124 Y118.634 E7.39478
G1 X103.992 Y118.578 E7.39767
G1 X103.582 Y118.169 E7.40930
G1 X102.484 Y117.226 E7.43838
G1 X102.456 Y117.086 E7.44126
G1 X102.408 Y116.996 E7.44330
G1 X102.259 Y116.848 E7.44753
G1 X102.062 Y116.755 E7.45190
G1 X101.499 Y116.090 E7.46942
G1 X101.301 Y115.892 E7.47504
G1 X101.243 Y115.788 E7.47744
G1 X101.052 Y115.564 E7.48334
G1 X100.843 Y115.354 E7.48930
G1 X100.695 Y115.287 E7.49256
G1 X100.067 Y114.658 E7.51042
G1 X99.816 Y114.437 E7.51714
G1 X99.757 Y114.347 E7.51929
G1 X98.366 Y112.954 E7.55885
G1 X97.744 Y112.633 E7.57294
G1 X97.064 Y110.586 E7.61628
G1 X97.022 Y110.518 E7.61788
G1 X84.627 Y98.129 E7.97006
G1 X74.238 Y87.677 E8.26620
G1 X47.895 Y61.334 E9.01487
G1 X34.277 Y47.774 E9.40107
G1 X34.327 Y47.340 F6000.000
G1 X34.138 Y47.295 E9.40498 F1800.000
G1 X31.000 Y48.337 E9.47143
G1 X28.886 Y47.278 E9.51896
G1 X28.520 Y47.165 E9.52665
G1 X28.318 Y46.993 E9.53198
G1 X27.745 Y46.706 E9.54486
G1 X27.651 Y46.422 E9.55088
G1 X27.601 Y46.346 E9.55268
G1 X27.216 Y46.003 E9.56305
G1 X27.125 Y45.824 E9.56709
G1 X25.732 Y44.431 E9.60668
G1 X22.160 Y40.859 E9.70820
G1 X21.615 Y40.575 E9.72055
G1 X20.585 Y37.476 E9.78618
G1 X21.755 Y35.141 E9.83868
G1 X21.745 Y34.958 E9.84235
G1 X20.981 Y33.782 E9.87053
G1 X20.811 Y33.652 E9.87483
G1 X20.627 Y33.240 E9.88390
G1 X20.488 Y33.023 E9.88908
G1 X20.373 Y32.672 E9.89651
G1 X19.906 Y31.629 E9.91947
G1 X19.732 Y30.770 E9.93708
G1 X19.753 Y29.810 E9.95638
G1 X19.964 Y28.960 E9.97399
G1 X21.545 Y25.806 E10.04487
G1 X21.628 Y25.779 E10.04664
G1 X21.731 Y25.689 E10.04938
G1 X22.233 Y24.688 E10.07189
G1 X22.491 Y24.297 E10.08129
G1 X22.821 Y23.906 E10.09159
G1 X23.164 Y23.587 E10.10100
G1 X24.251 Y22.787 E10.12811
G1 X24.353 Y22.666 E10.13131
G1 X24.790 Y21.795 E10.15089
G1 X26.235 Y20.690 E10.18745
G1 X26.564 Y20.624 E10.19418
G1 X26.734 Y20.515 E10.19824
G1 X27.173 Y20.427 E10.20723
G1 X27.699 Y20.104 E10.21964
G1 X28.288 Y20.076 E10.23149
G1 X29.922 Y19.505 E10.26628
G1 X30.771 Y19.728 E10.28392
G1 X31.352 Y19.755 E10.29560
G1 X32.018 Y20.053 E10.31026
G1 X32.254 Y20.117 E10.31517
G1 X32.773 Y20.391 E10.32698
G1 X33.262 Y20.609 E10.33773
G1 X33.335 Y20.672 E10.33966
G1 X33.886 Y20.932 E10.35192
G1 X34.049 Y21.030 E10.35573
G1 X34.465 Y21.510 E10.36849
G1 X39.792 Y26.821 E10.51966
G1 X61.203 Y48.306 E11.12922
G1 X87.519 Y74.623 E11.87712
G1 X110.233 Y97.228 E12.52110
G1 X110.313 Y97.273 E12.52295
G1 X111.879 Y97.672 E12.55541
G1 X112.688 Y98.583 E12.57990
G1 X113.859 Y99.754 E12.61319
G1 X113.954 Y99.806 E12.61537
G1 X114.298 Y100.192 E12.62575
G1 X114.725 Y100.619 E12.63788
G1 X114.805 Y100.763 E12.64119
G1 X115.024 Y101.010 E12.64783
G1 X115.272 Y101.250 E12.65477
G1 X115.426 Y101.319 E12.65815
G1 X115.779 Y101.673 E12.66820
G1 X116.164 Y101.991 E12.67823
G1 X116.284 Y102.179 E12.68271
G1 X118.016 Y103.914 E12.73199
G1 X118.580 Y105.020 E12.75693
G1 X118.677 Y105.618 E12.76911
G1 X118.726 Y105.714 E12.77129
G1 X126.552 Y113.536 E12.99363
G1 X139.631 Y126.671 E13.36614
G1 X139.738 Y126.722 E13.36851
G1 X140.093 Y126.760 E13.37569
G1 X141.707 Y127.835 E13.41467
G1 X141.974 Y128.324 E13.42586
G1 X142.105 Y128.437 E13.42933
G1 X142.379 Y129.063 E13.44307
G1 X142.463 Y129.140 E13.44537
G1 X142.566 Y129.185 E13.44762
G1 X142.630 Y129.237 E13.44928
G1 X142.981 Y129.413 E13.45716
G1 X143.065 Y129.667 E13.46254
G1 X143.132 Y129.756 E13.46478
G1 X144.525 Y130.720 E13.49883
G1 X144.919 Y131.666 E13.51941
G1 X144.972 Y131.736 E13.52119
G1 X145.929 Y132.483 E13.54557
G1 X146.286 Y133.223 E13.56210
G1 X146.478 Y133.408 E13.56744
G1 X146.986 Y133.663 E13.57886
G1 X147.038 Y133.821 E13.58220
G1 X147.105 Y133.910 E13.58444
G1 X147.419 Y134.127 E13.59212
G1 X147.462 Y134.230 E13.59435
G1 X147.524 Y134.307 E13.59633
G1 X148.518 Y134.995 E13.62063
G1 X148.886 Y135.880 E13.63989
G1 X148.980 Y135.975 E13.64257
G1 X149.099 Y136.026 E13.64518
G1 X150.304 Y137.307 E13.68051
G1 X151.096 Y137.704 E13.69832
G1 X151.293 Y138.297 E13.71089
G1 X151.364 Y138.448 E13.71423
G1 X151.422 Y138.515 E13.71602
G1 X152.511 Y139.269 E13.74264
G1 X152.762 Y139.851 E13.75537
G1 X153.636 Y140.890 E13.78265
G1 X154.734 Y141.560 E13.80850
G1 X155.377 Y142.652 E13.83397
G1 X155.477 Y142.734 E13.83657
G1 X155.501 Y142.807 E13.83812
G1 X155.568 Y142.896 E13.84036
G1 X156.504 Y143.544 E13.86323
G1 X156.547 Y143.647 E13.86546
G1 X156.608 Y143.723 E13.86744
G1 X157.603 Y144.412 E13.89174
G1 X158.034 Y145.448 E13.91431
G1 X158.121 Y145.540 E13.91685
G1 X158.263 Y145.608 E13.92000
G1 X159.317 Y146.793 E13.95188
G1 X159.419 Y146.935 E13.95539
G1 X160.102 Y147.277 E13.97074
G1 X160.220 Y147.631 E13.97824
