; generated by Slic3r 1.2.9 on 2017-11-14 at 15:04:06

; external perimeters extrusion width = 0.40mm
; perimeters extrusion width = 0.56mm
; infill extrusion width = 0.56mm
; solid infill extrusion width = 0.56mm
; top infill extrusion width = 0.56mm
; support material extrusion width = 0.40mm

M107
M190 S95 ; set bed temperature
M104 S245 ; set temperature
G28 ; home all axes
G1 Z5 F5000 ; lift nozzle

M109 S245 ; wait for temperature to be reached
G21 ; set units to millimeters
G90 ; use absolute coordinates
M82 ; use absolute distances for extrusion
G92 E0
G1 Z0.150 F6000.000
G1 E-1.00000 F2400.00000
G92 E0
G1 X18.727 Y18.727 F6000.000
G1 E1.00000 F2400.00000
G1 X20.219 Y17.235 E1.04241 F1800.000
G1 X22.149 Y15.868 E1.08994
G1 X23.159 Y15.383 E1.11244
G1 X25.895 Y14.699 E1.16912
G1 X30.598 Y14.495 E1.26373
G1 X32.307 Y14.630 E1.29818
G1 X33.003 Y14.772 E1.31245 F1800.000
G1 X36.004 Y16.183 E1.37909
G1 X61.144 Y36.411 E2.02753
G1 X61.709 Y36.917 E2.04277
G1 X146.506 Y121.734 E4.45298
G1 X147.444 Y122.897 E4.48300
G1 X161.648 Y144.945 E5.01006
G1 X162.155 Y145.880 E5.03143
G1 X162.543 Y146.747 E5.05053
G1 X163.133 Y149.036 E5.09801
G1 X162.842 Y151.699 E5.15185
G1 X162.176 Y153.848 E5.19707
G1 X161.746 Y154.918 E5.22024
G1 X161.567 Y155.274 E5.22826
G1 X160.283 Y157.065 E5.27253
G1 X156.940 Y160.425 E5.36779
G1 X154.286 Y162.095 E5.43080
G1 X152.290 Y162.792 E5.47329
G1 X149.555 Y163.174 E5.52879
G1 X149.155 Y163.150 E5.53683
G1 X146.699 Y162.549 E5.58765
G1 X145.422 Y161.947 E5.61601
G1 X144.778 Y161.581 E5.63090
G1 X123.244 Y147.776 E6.14494
G1 X122.066 Y146.828 E6.17532
G1 X37.274 Y62.001 E8.58560
G1 X36.909 Y61.606 E8.59641
G1 X36.293 Y60.882 E8.61551
G1 X16.419 Y36.268 E9.25126
G1 X15.311 Y34.332 E9.29608
G1 X14.982 Y33.459 E9.31484
G1 X14.534 Y30.750 E9.37001
G1 X14.694 Y25.839 E9.46875
G1 X15.435 Y22.920 E9.52929
G1 X15.831 Y22.130 E9.54702
G1 X17.144 Y20.310 E9.59214
G1 X18.685 Y18.770 E9.63592
G1 X18.970 Y18.970 F6000.000
G1 X20.462 Y17.477 E9.67833 F1800.000
G1 X22.298 Y16.177 E9.72354
G1 X23.307 Y15.692 E9.74604
G1 X25.910 Y15.041 E9.79995
G1 X30.613 Y14.837 E9.89456
G1 X32.239 Y14.966 E9.92733
G1 X32.935 Y15.108 E9.94160 F1800.000
G1 X35.789 Y16.450 E10.00499
G1 X60.929 Y36.678 E10.65343
G1 X61.466 Y37.160 E10.66793
G1 X146.263 Y121.977 E13.07814
G1 X147.155 Y123.083 E13.10669
G1 X161.360 Y145.131 E13.63376
G1 X161.842 Y146.020 E13.65408
G1 X162.230 Y146.887 E13.67318
G1 X162.795 Y149.121 E13.71948
G1 X162.515 Y151.597 E13.76956
G1 X161.849 Y153.747 E13.81479
G1 X161.439 Y154.764 E13.83683
G1 X161.261 Y155.121 E13.84484
G1 X160.040 Y156.824 E13.88696
G1 X156.698 Y160.183 E13.98217
G1 X154.173 Y161.771 E14.04212
G1 X152.177 Y162.469 E14.08461
G1 X149.575 Y162.832 E14.13740
G1 X149.175 Y162.808 E14.14544
G1 X146.839 Y162.236 E14.19378
G1 X145.576 Y161.641 E14.22184
G1 X144.963 Y161.292 E14.23600
G1 X123.429 Y147.488 E14.75004
G1 X122.308 Y146.586 E14.77894
G1 X37.517 Y61.758 E17.18922
G1 X37.169 Y61.383 E17.19951
G1 X36.559 Y60.667 E17.21840
G1 X16.686 Y36.053 E17.85415
G1 X15.632 Y34.211 E17.89679
G1 X15.302 Y33.338 E17.91554
G1 X14.876 Y30.761 E17.96803
G1 X15.037 Y25.851 E18.06676
G1 X15.742 Y23.073 E18.12435
G1 X16.137 Y22.284 E18.14209
G1 X17.387 Y20.552 E18.18500
G1 X18.927 Y19.012 E18.22878
G1 X19.212 Y19.212 F6000.000
G1 X20.704 Y17.720 E18.27119 F1800.000
G1 X22.446 Y16.486 E18.31408
G1 X23.456 Y16.001 E18.33658
G1 X25.924 Y15.383 E18.38773
G1 X30.628 Y15.180 E18.48234
G1 X32.170 Y15.302 E18.51343
G1 X32.866 Y15.444 E18.52770 F1800.000
G1 X35.575 Y16.717 E18.58784
G1 X60.714 Y36.945 E19.23628
G1 X61.224 Y37.402 E19.25003
G1 X146.021 Y122.219 E21.66024
G1 X146.867 Y123.268 E21.68733
G1 X161.072 Y145.316 E22.21440
G1 X161.529 Y146.160 E22.23368
G1 X161.918 Y147.028 E22.25278
G1 X162.458 Y149.205 E22.29787
G1 X162.187 Y151.496 E22.34422
G1 X161.521 Y153.645 E22.38945
G1 X161.133 Y154.611 E22.41035
G1 X160.954 Y154.967 E22.41837
G1 X159.796 Y156.583 E22.45832
G1 X156.455 Y159.941 E22.55351
G1 X154.059 Y161.447 E22.61038
G1 X152.064 Y162.145 E22.65287
G1 X149.595 Y162.489 E22.70295
G1 X149.196 Y162.466 E22.71099
G1 X146.979 Y161.923 E22.75685
G1 X145.729 Y161.335 E22.78461
G1 X145.148 Y161.004 E22.79805
G1 X123.614 Y147.199 E23.31209
G1 X122.551 Y146.344 E23.33951
G1 X37.759 Y61.516 E25.74979
G1 X37.429 Y61.160 E25.75954
G1 X36.826 Y60.452 E25.77823
G1 X16.952 Y35.837 E26.41398
G1 X15.952 Y34.090 E26.45444
G1 X15.623 Y33.217 E26.47319
G1 X15.219 Y30.772 E26.52299
G1 X15.379 Y25.862 E26.62172
G1 X16.048 Y23.227 E26.67635
G1 X16.444 Y22.438 E26.69409
G1 X17.629 Y20.795 E26.73480
G1 X19.170 Y19.254 E26.77858
G1 E25.77858 F2400.00000
G92 E0
G1 X52.432 Y38.315 F6000.000
G1 E1.00000 F2400.00000
G1 X52.784 Y38.263 E1.00715 F1800.000
G1 X52.866 Y38.099 E1.01083
G1 X56.235 Y36.980 E1.08216
G1 X57.101 Y37.414 E1.10162
G1 X57.168 Y37.432 E1.10301
G1 X58.426 Y37.510 E1.12835
G1 X60.483 Y39.063 E1.18014
G1 X61.429 Y41.735 E1.23711
G1 X61.549 Y42.592 E1.25449
G1 X61.490 Y43.531 E1.27341
G1 X61.265 Y44.367 E1.29080
G1 X60.174 Y46.544 E1.33974
G1 X60.209 Y46.762 E1.34419
G1 X79.053 Y65.672 E1.88067
G1 X137.002 Y123.603 E3.52731
G1 X137.347 Y123.547 E3.53436
G1 X137.640 Y122.963 E3.54750
G1 X141.009 Y121.843 E3.61884
G1 X141.736 Y122.207 E3.63517
G1 X141.817 Y122.226 E3.63684
G1 X142.773 Y122.210 E3.65606
G1 X144.841 Y123.418 E3.70418
G1 X146.134 Y125.800 E3.75865
G1 X146.397 Y126.802 E3.77946
G1 X146.415 Y127.929 E3.80212
G1 X146.185 Y128.939 E3.82292
G1 X144.971 Y131.362 E3.87739
G1 X145.006 Y131.581 E3.88185
G1 X152.923 Y139.466 E4.10640
G1 X158.086 Y144.644 E4.25335
G1 X158.578 Y144.904 E4.26452
G1 X159.268 Y145.972 E4.29007
G1 X159.461 Y146.116 E4.29491
G1 X159.676 Y146.598 E4.30552
G1 X159.826 Y146.833 E4.31112
G1 X159.948 Y147.206 E4.31899
G1 X160.422 Y148.265 E4.34231
G1 X160.611 Y149.198 E4.36146
G1 X160.589 Y150.235 E4.38229
G1 X160.359 Y151.160 E4.40144
G1 X160.125 Y151.626 E4.41192
G1 X160.116 Y151.762 E4.41467
G1 X160.256 Y152.186 E4.42364
G1 X158.487 Y155.716 E4.50299
G1 X157.910 Y155.908 E4.51520
G1 X157.807 Y155.997 E4.51794
G1 X157.393 Y156.823 E4.53652
G1 X156.969 Y156.964 E4.54550
G1 X156.866 Y157.053 E4.54824
G1 X156.745 Y157.295 E4.55367
G1 X155.981 Y157.549 E4.56985
G1 X155.877 Y157.638 E4.57259
G1 X155.481 Y158.430 E4.59038
G1 X153.910 Y159.631 E4.63012
G1 X153.581 Y159.697 E4.63686
G1 X153.411 Y159.805 E4.64092
G1 X152.642 Y159.962 E4.65668
G1 X151.858 Y160.236 E4.67337
G1 X151.613 Y160.374 E4.67902
G1 X151.143 Y160.486 E4.68873
G1 X150.590 Y160.679 E4.70049
G1 X150.505 Y160.656 E4.70226
G1 X150.390 Y160.663 E4.70459
G1 X148.127 Y160.529 E4.75014
G1 X147.279 Y160.007 E4.77015
G1 X147.050 Y159.903 E4.77520
G1 X146.358 Y159.704 E4.78968
G1 X145.745 Y159.141 E4.80639
G1 X145.657 Y159.096 E4.80838
G1 X145.195 Y158.636 E4.82149
G1 X144.704 Y158.184 E4.83489
G1 X144.639 Y158.082 E4.83733
G1 X131.536 Y145.029 E5.20901
G1 X131.190 Y145.085 E5.21605
G1 X130.971 Y145.523 E5.22588
G1 X127.602 Y146.642 E5.29722
G1 X127.051 Y146.366 E5.30961
G1 X126.961 Y146.347 E5.31146
G1 X126.097 Y146.406 E5.32885
G1 X124.049 Y145.413 E5.37460
G1 X122.550 Y143.222 E5.42793
G1 X122.174 Y142.138 E5.45099
G1 X122.090 Y140.892 E5.47610
G1 X122.316 Y139.767 E5.49916
G1 X123.585 Y137.234 E5.55609
G1 X123.550 Y137.016 E5.56053
G1 X118.716 Y132.155 E5.69830
G1 X65.900 Y79.339 E7.19933
G1 X54.113 Y67.616 E7.53340
G1 X46.741 Y60.210 E7.74339
G1 X46.394 Y60.266 E7.75045
G1 X46.211 Y60.631 E7.75866
G1 X42.842 Y61.751 E7.83000
G1 X42.431 Y61.545 E7.83924
G1 X42.331 Y61.527 E7.84128
G1 X41.621 Y61.614 E7.85564
G1 X39.615 Y60.836 E7.89890
G1 X37.916 Y58.854 E7.95134
G1 X37.406 Y57.696 E7.97678
G1 X37.238 Y56.327 E8.00450
G1 X37.454 Y55.080 E8.02994
G1 X38.526 Y52.940 E8.07803
G1 X38.462 Y52.692 E8.08318
G1 X37.804 Y52.236 E8.09928
G1 X37.374 Y51.203 E8.12176
G1 X37.290 Y51.113 E8.12424
G1 X36.350 Y50.642 E8.14536
G1 X36.055 Y49.752 E8.16420
G1 X36.003 Y49.676 E8.16605
G1 X35.056 Y48.852 E8.19127
G1 X34.957 Y48.681 E8.19525
G1 X34.884 Y48.612 E8.19727
G1 X33.804 Y48.071 E8.22154
G1 X33.514 Y47.199 E8.24000
G1 X33.448 Y47.110 E8.24224
G1 X32.432 Y46.407 E8.26706
G1 X32.049 Y45.487 E8.28709
G1 X32.007 Y45.427 E8.28856
G1 X30.976 Y44.461 E8.31695
G1 X30.942 Y44.399 E8.31838
G1 X30.867 Y44.326 E8.32049
G1 X29.811 Y43.797 E8.34422
G1 X29.571 Y43.073 E8.35953
G1 X29.463 Y42.961 E8.36266
G1 X29.430 Y42.861 E8.36477
G1 X29.363 Y42.772 E8.36701
G1 X28.439 Y42.132 E8.38959
G1 X28.379 Y41.988 E8.39274
G1 X28.315 Y41.910 E8.39477
G1 X27.413 Y41.307 E8.41657
G1 X26.985 Y40.340 E8.43782
G1 X26.933 Y40.274 E8.43952
G1 X25.941 Y39.500 E8.46479
G1 X25.653 Y38.903 E8.47811
G1 X25.573 Y38.823 E8.48039
G1 X24.823 Y38.447 E8.49724
G1 X24.700 Y38.077 E8.50508
G1 X24.634 Y37.988 E8.50732
G1 X24.446 Y37.858 E8.51190
G1 X24.404 Y37.755 E8.51413
G1 X24.342 Y37.679 E8.51611
G1 X23.347 Y36.990 E8.54041
G1 X23.215 Y36.673 E8.54731
G1 X22.970 Y36.562 E8.55273
G1 X22.393 Y36.753 E8.56494
G1 X21.545 Y36.328 E8.58401
G1 X21.476 Y36.310 E8.58544
G1 X20.257 Y36.246 E8.60997
G1 X18.196 Y34.740 E8.66128
G1 X17.203 Y32.105 E8.71785
G1 X17.067 Y31.229 E8.73568
G1 X17.117 Y30.265 E8.75509
G1 X17.343 Y29.407 E8.77291
G1 X17.732 Y28.631 E8.79035
G1 X17.745 Y28.505 E8.79290
G1 X17.560 Y27.829 E8.80699
G1 X17.524 Y27.454 E8.81455
G1 X16.925 Y25.652 E8.85272
G1 X18.911 Y21.689 E8.94180
G1 X19.761 Y21.406 E8.95980
G1 X19.864 Y21.317 E8.96254
G1 X20.449 Y20.151 E8.98875
G1 X21.318 Y19.862 E9.00717
G1 X21.405 Y19.799 E9.00932
G1 X21.780 Y19.285 E9.02211
G1 X22.329 Y18.745 E9.03758
G1 X22.908 Y18.339 E9.05180
G1 X25.624 Y17.035 E9.11235
G1 X28.332 Y17.510 E9.16758
G1 X28.403 Y17.582 E9.16964
G1 X28.594 Y17.628 E9.17358
G1 X31.068 Y16.806 E9.22597
G1 X31.771 Y17.159 E9.24178
G1 X31.854 Y17.177 E9.24348
G1 X32.772 Y17.152 E9.26193
G1 X34.837 Y18.312 E9.30953
G1 X36.176 Y20.653 E9.36373
G1 X36.462 Y21.673 E9.38502
G1 X36.494 Y22.827 E9.40821
G1 X36.466 Y22.952 E9.41078
G1 X36.471 Y23.045 E9.41265
G1 X36.546 Y23.269 E9.41741
G1 X36.608 Y23.356 E9.41955
G1 X37.332 Y23.886 E9.43758
G1 X37.446 Y24.187 E9.44405
G1 X37.544 Y24.289 E9.44690
G1 X37.853 Y24.418 E9.45363
G1 X39.089 Y25.702 E9.48946
G1 X39.161 Y25.896 E9.49360
G1 X39.248 Y25.992 E9.49621
G1 X40.508 Y26.624 E9.52453
G1 X40.704 Y27.214 E9.53703
G1 X40.767 Y27.300 E9.53917
G1 X41.491 Y27.830 E9.55720
G1 X41.604 Y28.131 E9.56367
G1 X41.702 Y28.233 E9.56652
G1 X42.012 Y28.362 E9.57325
G1 X43.248 Y29.647 E9.60908
G1 X43.356 Y29.897 E9.61455
G1 X44.211 Y30.786 E9.63933
G1 X44.282 Y30.979 E9.64347
G1 X44.369 Y31.076 E9.64609
G1 X45.629 Y31.707 E9.67441
G1 X45.748 Y32.064 E9.68196
G1 X45.849 Y32.173 E9.68496
G1 X46.170 Y32.307 E9.69194
G1 X47.406 Y33.592 E9.72777
G1 X47.514 Y33.842 E9.73324
G1 X48.151 Y34.504 E9.75170
G1 X49.807 Y35.719 E9.79299
G1 X49.920 Y36.020 E9.79945
G1 X50.019 Y36.123 E9.80231
G1 X50.328 Y36.251 E9.80904
G1 X51.485 Y37.454 E9.84258
G1 X51.720 Y37.569 E9.84784
G1 X52.391 Y38.272 E9.86736
G1 X52.521 Y38.905 F6000.000
G1 X52.873 Y38.852 E9.87452 F1800.000
G1 X53.109 Y38.380 E9.88513
G1 X56.208 Y37.350 E9.95076
G1 X57.010 Y37.752 E9.96877
G1 X57.077 Y37.770 E9.97016
G1 X58.302 Y37.846 E9.99483
G1 X60.194 Y39.274 E10.04248
G1 X61.094 Y41.817 E10.09668
G1 X61.204 Y42.605 E10.11267
G1 X61.150 Y43.475 E10.13020
G1 X60.943 Y44.244 E10.14619
G1 X59.756 Y46.611 E10.19941
G1 X59.792 Y46.830 E10.20385
G1 X78.810 Y65.914 E10.74529
G1 X137.096 Y124.181 E12.40149
G1 X137.441 Y124.125 E12.40853
G1 X137.883 Y123.243 E12.42835
G1 X140.983 Y122.213 E12.49399
G1 X141.658 Y122.552 E12.50916
G1 X141.738 Y122.570 E12.51082
G1 X142.683 Y122.555 E12.52981
G1 X144.585 Y123.666 E12.57408
G1 X145.813 Y125.928 E12.62580
G1 X146.055 Y126.849 E12.64494
G1 X146.072 Y127.893 E12.66593
G1 X145.860 Y128.822 E12.68507
G1 X144.553 Y131.430 E12.74368
G1 X144.589 Y131.648 E12.74814
G1 X152.738 Y139.766 E12.97930
G1 X157.882 Y144.925 E13.12570
G1 X158.340 Y145.168 E13.13611
G1 X159.019 Y146.218 E13.16125
G1 X159.188 Y146.347 E13.16553
G1 X159.374 Y146.762 E13.17467
G1 X159.514 Y146.982 E13.17990
G1 X159.628 Y147.329 E13.18724
G1 X160.094 Y148.370 E13.21016
G1 X160.268 Y149.229 E13.22777
G1 X160.247 Y150.190 E13.24708
G1 X160.036 Y151.040 E13.26469
G1 X159.755 Y151.600 E13.27726
G1 X159.745 Y151.736 E13.28001
G1 X159.886 Y152.159 E13.28898
G1 X158.244 Y155.435 E13.36262
G1 X157.667 Y155.627 E13.37484
G1 X157.564 Y155.716 E13.37758
G1 X157.150 Y156.543 E13.39615
G1 X156.726 Y156.684 E13.40513
G1 X156.623 Y156.773 E13.40787
G1 X156.502 Y157.014 E13.41330
G1 X155.738 Y157.268 E13.42949
G1 X155.635 Y157.358 E13.43223
G1 X155.210 Y158.205 E13.45128
G1 X153.764 Y159.310 E13.48784
G1 X153.436 Y159.376 E13.49458
G1 X153.265 Y159.485 E13.49863
G1 X152.551 Y159.630 E13.51328
G1 X151.714 Y159.923 E13.53109
G1 X151.485 Y160.052 E13.53637
G1 X151.047 Y160.156 E13.54544
G1 X150.576 Y160.321 E13.55545
G1 X150.509 Y160.303 E13.55684
G1 X150.360 Y160.318 E13.55986
G1 X148.233 Y160.192 E13.60267
G1 X147.442 Y159.704 E13.62135
G1 X147.170 Y159.581 E13.62735
G1 X146.530 Y159.396 E13.64073
G1 X145.922 Y158.838 E13.65733
G1 X145.841 Y158.795 E13.65917
G1 X144.977 Y157.970 E13.68318
G1 X144.916 Y157.873 E13.68547
G1 X131.442 Y144.451 E14.06766
G1 X131.096 Y144.508 E14.07470
G1 X130.728 Y145.242 E14.09121
G1 X127.629 Y146.272 E14.15684
G1 X127.121 Y146.017 E14.16826
G1 X127.031 Y145.999 E14.17010
G1 X126.165 Y146.058 E14.18755
G1 X124.280 Y145.144 E14.22963
G1 X122.859 Y143.067 E14.28021
G1 X122.513 Y142.069 E14.30143
G1 X122.435 Y140.914 E14.32469
G1 X122.643 Y139.880 E14.34590
G1 X124.002 Y137.167 E14.40687
G1 X123.967 Y136.949 E14.41131
G1 X118.958 Y131.913 E14.55406
G1 X66.142 Y79.096 E16.05509
G1 X54.393 Y67.410 E16.38810
G1 X46.647 Y59.631 E16.60870
G1 X46.301 Y59.687 E16.61576
G1 X45.968 Y60.351 E16.63069
G1 X42.869 Y61.381 E16.69632
G1 X42.492 Y61.192 E16.70479
G1 X42.392 Y61.175 E16.70682
G1 X41.665 Y61.264 E16.72154
G1 X39.819 Y60.547 E16.76133
G1 X38.210 Y58.670 E16.81103
G1 X37.740 Y57.604 E16.83444
G1 X37.584 Y56.336 E16.86012
G1 X37.783 Y55.188 E16.88352
G1 X38.966 Y52.828 E16.93658
G1 X38.902 Y52.580 E16.94172
G1 X38.082 Y52.011 E16.96178
G1 X37.641 Y50.954 E16.98480
G1 X37.557 Y50.864 E16.98728
G1 X36.631 Y50.399 E17.00811
G1 X36.350 Y49.555 E17.02598
G1 X36.299 Y49.479 E17.02783
G1 X35.324 Y48.631 E17.05379
G1 X35.202 Y48.420 E17.05869
G1 X35.129 Y48.352 E17.06070
G1 X34.085 Y47.828 E17.08418
G1 X33.804 Y46.982 E17.10209
G1 X33.737 Y46.893 E17.10433
G1 X32.710 Y46.182 E17.12943
G1 X32.337 Y45.287 E17.14892
G1 X32.296 Y45.227 E17.15039
G1 X31.251 Y44.249 E17.17914
G1 X31.192 Y44.141 E17.18162
G1 X31.117 Y44.067 E17.18373
G1 X30.092 Y43.554 E17.20677
G1 X29.851 Y42.830 E17.22209
G1 X29.744 Y42.718 E17.22522
G1 X29.719 Y42.645 E17.22677
G1 X29.653 Y42.556 E17.22901
G1 X28.717 Y41.908 E17.25187
G1 X28.656 Y41.761 E17.25508
G1 X28.591 Y41.682 E17.25711
G1 X27.686 Y41.077 E17.27899
G1 X27.264 Y40.123 E17.29997
G1 X27.212 Y40.056 E17.30167
G1 X26.215 Y39.279 E17.32707
G1 X25.911 Y38.649 E17.34112
G1 X25.831 Y38.568 E17.34340
G1 X25.104 Y38.204 E17.35975
G1 X24.990 Y37.860 E17.36703
G1 X24.923 Y37.771 E17.36927
G1 X24.724 Y37.633 E17.37413
G1 X24.681 Y37.531 E17.37636
G1 X24.619 Y37.454 E17.37834
G1 X23.625 Y36.766 E17.40264
G1 X23.409 Y36.248 E17.41392
G1 X23.164 Y36.136 E17.41933
G1 X22.420 Y36.383 E17.43509
G1 X21.634 Y35.989 E17.45275
G1 X21.566 Y35.971 E17.45418
G1 X20.377 Y35.909 E17.47810
G1 X18.481 Y34.523 E17.52530
G1 X17.536 Y32.018 E17.57911
G1 X17.411 Y31.211 E17.59551
G1 X17.457 Y30.318 E17.61349
G1 X17.666 Y29.529 E17.62989
G1 X18.097 Y28.668 E17.64925
G1 X18.110 Y28.541 E17.65180
G1 X17.899 Y27.769 E17.66790
G1 X17.862 Y27.385 E17.67564
G1 X17.295 Y25.678 E17.71179
G1 X19.154 Y21.969 E17.79516
G1 X20.004 Y21.687 E17.81316
G1 X20.107 Y21.598 E17.81590
G1 X20.691 Y20.432 E17.84210
G1 X21.531 Y20.153 E17.85988
G1 X21.618 Y20.090 E17.86204
G1 X22.040 Y19.509 E17.87647
G1 X22.549 Y19.009 E17.89080
G1 X23.082 Y18.635 E17.90388
G1 X25.674 Y17.392 E17.96165
G1 X28.164 Y17.828 E18.01246
G1 X28.309 Y17.975 E18.01660
