; generated by Slic3r 1.2.9 on 2018-04-02 at 20:32:03

; external perimeters extrusion width = 0.40mm
; perimeters extrusion width = 0.56mm
; infill extrusion width = 0.56mm
; solid infill extrusion width = 0.56mm
; top infill extrusion width = 0.56mm

M107
M190 S95 ; set bed temperature
M104 S245 ; set temperature
G28 ; home all axes
G1 Z5 F5000 ; lift nozzle

M109 S245 ; wait for temperature to be reached
G21 ; set units to millimeters
G90 ; use absolute coordinates
M82 ; use absolute distances for extrusion
G92 E0
G1 Z0.200 F6000.000
G1 E-1.00000 F2400.00000
G92 E0
G1 X48.907 Y55.106 F6000.000
G1 E1.00000 F2400.00000
G1 X49.972 Y54.161 E1.05088 F1800.000
G1 X52.021 Y52.873 E1.13734
G1 X54.335 Y52.321 E1.22231
G1 X92.148 Y49.594 E2.57674
G1 X93.272 Y49.568 E2.61689
G1 X94.431 Y49.638 E2.65838 F1800.000
G1 X95.346 Y49.765 E2.69139
G1 X126.194 Y54.959 E3.80899
G1 X126.937 Y55.119 E3.83613
G1 X127.447 Y55.259 E3.85503
G1 X184.342 Y73.110 E5.98534
G1 X186.501 Y74.203 E6.07180
G1 X188.734 Y76.858 E6.19573
G1 X189.269 Y77.942 E6.23892
G1 X189.930 Y80.017 E6.31671
G1 X190.007 Y80.493 E6.33393
G1 X190.007 Y82.845 E6.41796
G1 X189.930 Y83.320 E6.43518
G1 X189.269 Y85.395 E6.51297
G1 X188.734 Y86.479 E6.55616
G1 X187.001 Y88.731 E6.65766
G1 X152.731 Y118.850 E8.28765
G1 X150.675 Y120.127 E8.37411
G1 X147.959 Y120.684 E8.47315
G1 X143.171 Y120.745 E8.64424
G1 X1.910 Y120.719 E13.69094
G1 X-2.199 Y120.684 E13.83772
G1 X-4.583 Y120.266 E13.92418
G1 X-6.703 Y119.099 E14.01064
G1 X-8.734 Y116.598 E14.12574
G1 X-9.269 Y115.514 E14.16893
G1 X-9.930 Y113.439 E14.24672
G1 X-10.007 Y112.963 E14.26394
G1 X-10.007 Y110.611 E14.34797
G1 X-9.930 Y110.135 E14.36519
G1 X-9.269 Y108.061 E14.44298
G1 X-8.734 Y106.976 E14.48617
G1 X-7.028 Y104.748 E14.58642
G1 X48.862 Y55.146 E17.25611
G1 X49.210 Y55.448 F6000.000
G1 X50.275 Y54.502 E17.30699 F1800.000
G1 X52.266 Y53.266 E17.39071
G1 X54.368 Y52.777 E17.46779
G1 X92.181 Y50.050 E18.82222
G1 X93.258 Y50.025 E18.86071
G1 X94.390 Y50.094 E18.90121 F1800.000
G1 X95.270 Y50.216 E18.93297
G1 X126.119 Y55.410 E20.05057
G1 X126.832 Y55.563 E20.07664
G1 X127.310 Y55.695 E20.09437
G1 X184.205 Y73.546 E22.22468
G1 X186.290 Y74.616 E22.30840
G1 X188.325 Y77.061 E22.42206
G1 X188.858 Y78.144 E22.46517
G1 X189.478 Y80.090 E22.53813
G1 X189.555 Y80.565 E22.55535
G1 X189.555 Y82.772 E22.63417
G1 X189.478 Y83.247 E22.65139
G1 X188.858 Y85.193 E22.72436
G1 X188.325 Y86.276 E22.76747
G1 X186.700 Y88.388 E22.86268
G1 X152.429 Y118.506 E24.49266
G1 X150.432 Y119.733 E24.57637
G1 X147.954 Y120.227 E24.66667
G1 X143.171 Y120.287 E24.83755
G1 X1.910 Y120.262 E29.88424
G1 X-2.195 Y120.227 E30.03088
G1 X-4.501 Y119.810 E30.11460
G1 X-6.535 Y118.647 E30.19832
G1 X-8.325 Y116.394 E30.30109
G1 X-8.858 Y115.312 E30.34420
G1 X-9.478 Y113.366 E30.41717
G1 X-9.555 Y112.890 E30.43439
G1 X-9.555 Y110.684 E30.51320
G1 X-9.478 Y110.208 E30.53042
G1 X-8.858 Y108.262 E30.60339
G1 X-8.325 Y107.180 E30.64650
G1 X-6.725 Y105.090 E30.74053
G1 X49.165 Y55.488 E33.41022
G1 X49.514 Y55.790 F6000.000
G1 X50.579 Y54.844 E33.46110 F1800.000
G1 X52.509 Y53.662 E33.54199
G1 X54.400 Y53.233 E33.61126
G1 X92.214 Y50.506 E34.96569
G1 X93.244 Y50.482 E35.00251
G1 X94.348 Y50.549 E35.04202 F1800.000
G1 X95.194 Y50.666 E35.07254
G1 X126.043 Y55.861 E36.19014
G1 X126.727 Y56.008 E36.21515
G1 X127.174 Y56.131 E36.23170
G1 X184.068 Y73.982 E38.36202
G1 X186.076 Y75.028 E38.44290
G1 X187.916 Y77.265 E38.54637
G1 X188.448 Y78.345 E38.58940
G1 X189.027 Y80.163 E38.65754
G1 X189.104 Y80.638 E38.67476
G1 X189.104 Y82.699 E38.74837
G1 X189.027 Y83.175 E38.76559
G1 X188.448 Y84.992 E38.83373
G1 X187.916 Y86.072 E38.87675
G1 X186.398 Y88.044 E38.96567
G1 X152.127 Y118.163 E40.59565
G1 X150.191 Y119.336 E40.67653
G1 X147.948 Y119.770 E40.75816
G1 X143.171 Y119.830 E40.92883
G1 X1.910 Y119.805 E45.97552
G1 X-2.191 Y119.770 E46.12202
G1 X-4.416 Y119.354 E46.20291
G1 X-6.361 Y118.195 E46.28379
G1 X-7.916 Y116.191 E46.37440
G1 X-8.448 Y115.111 E46.41742
G1 X-9.027 Y113.293 E46.48557
G1 X-9.104 Y112.817 E46.50279
G1 X-9.104 Y110.757 E46.57639
G1 X-9.027 Y110.281 E46.59361
G1 X-8.448 Y108.464 E46.66176
G1 X-7.916 Y107.384 E46.70478
G1 X-6.421 Y105.432 E46.79260
G1 X49.469 Y55.829 E49.46229
G1 E48.46229 F2400.00000
G92 E0
G1 X49.448 Y75.753 F6000.000
G1 E1.00000 F2400.00000
G1 X69.642 Y75.819 E1.72146 F1800.000
G1 X144.628 Y75.819 E4.40039
G1 X173.000 Y75.726 E5.41402
G1 X183.397 Y75.811 E5.78546 F1800.000
G1 X185.476 Y77.110 E5.87306
G1 X186.692 Y79.567 E5.97101
G1 X186.888 Y80.182 E5.99405
G1 X187.072 Y81.320 E6.03524
G1 X187.072 Y82.017 E6.06015
G1 X186.888 Y83.155 E6.10135
G1 X186.692 Y83.770 E6.12439
G1 X185.476 Y86.226 E6.22231
G1 X183.398 Y87.526 E6.30988
G1 X178.111 Y87.571 E6.49878
G1 X144.621 Y87.367 E7.69524
G1 X69.649 Y87.367 E10.37369
G1 X36.192 Y87.571 E11.56901
G1 X30.866 Y87.526 E11.75927
G1 X28.782 Y86.215 E11.84725
G1 X27.043 Y82.678 E11.98805
G1 X27.043 Y80.659 E12.06019
G1 X28.782 Y77.122 E12.20100
G1 X30.868 Y75.811 E12.28903
G1 X41.271 Y75.726 E12.66068
G1 X49.388 Y75.753 E12.95068
G1 X49.446 Y76.210 F6000.000
G1 X69.641 Y76.276 E13.67217 F1800.000
G1 X144.628 Y76.276 E16.35116
G1 X172.975 Y76.183 E17.36388
G1 X183.264 Y76.267 E17.73146 F1800.000
G1 X185.124 Y77.429 E17.80984
G1 X186.267 Y79.738 E17.90188
G1 X186.442 Y80.288 E17.92249
G1 X186.615 Y81.357 E17.96116
G1 X186.615 Y81.980 E17.98345
G1 X186.442 Y83.049 E18.02212
G1 X186.267 Y83.599 E18.04273
G1 X185.125 Y85.907 E18.13475
G1 X183.265 Y87.070 E18.21310
G1 X178.108 Y87.114 E18.39734
G1 X144.623 Y86.910 E19.59367
G1 X69.648 Y86.910 E22.27221
G1 X36.191 Y87.114 E23.46752
G1 X31.000 Y87.070 E23.65297
G1 X29.135 Y85.897 E23.73169
G1 X27.500 Y82.572 E23.86406
G1 X27.500 Y80.765 E23.92861
G1 X29.135 Y77.440 E24.06099
G1 X31.001 Y76.267 E24.13975
G1 X41.273 Y76.183 E24.50673
G1 X49.386 Y76.210 E24.79659
G1 X49.445 Y76.667 F6000.000
G1 X69.640 Y76.733 E25.51810 F1800.000
G1 X144.629 Y76.733 E28.19714
G1 X172.995 Y76.640 E29.21054
G1 X183.131 Y76.723 E29.57267 F1800.000
G1 X184.773 Y77.749 E29.64183
G1 X185.842 Y79.909 E29.72796
G1 X185.996 Y80.395 E29.74615
G1 X186.158 Y81.393 E29.78230
G1 X186.158 Y81.944 E29.80196
G1 X185.996 Y82.943 E29.83811
G1 X185.842 Y83.428 E29.85630
G1 X184.773 Y85.588 E29.94241
G1 X183.132 Y86.614 E30.01154
G1 X178.106 Y86.657 E30.19111
G1 X144.624 Y86.453 E31.38731
G1 X69.646 Y86.453 E34.06596
G1 X36.190 Y86.657 E35.26125
G1 X31.134 Y86.614 E35.44189
G1 X29.488 Y85.579 E35.51135
G1 X27.957 Y82.466 E35.63530
G1 X27.957 Y80.872 E35.69225
G1 X29.488 Y77.758 E35.81620
G1 X31.135 Y76.723 E35.88570
G1 X41.275 Y76.640 E36.24799
G1 X49.385 Y76.667 E36.53771
G1 X49.443 Y77.124 F6000.000
G1 X69.640 Y77.191 E37.25928 F1800.000
G1 X144.630 Y77.191 E39.93835
G1 X172.976 Y77.097 E40.95103
G1 X182.998 Y77.179 E41.30911 F1800.000
G1 X184.421 Y78.068 E41.36904
G1 X185.417 Y80.081 E41.44927
G1 X185.551 Y80.501 E41.46503
G1 X185.701 Y81.430 E41.49865
G1 X185.701 Y81.907 E41.51570
G1 X185.551 Y82.836 E41.54932
G1 X185.417 Y83.257 E41.56508
G1 X184.421 Y85.269 E41.64529
G1 X182.999 Y86.158 E41.70520
G1 X178.104 Y86.200 E41.88010
G1 X144.625 Y85.996 E43.07617
G1 X69.645 Y85.996 E45.75492
G1 X36.189 Y86.200 E46.95021
G1 X31.267 Y86.158 E47.12604
G1 X29.841 Y85.261 E47.18623
G1 X28.414 Y82.359 E47.30175
G1 X28.414 Y80.978 E47.35111
G1 X29.841 Y78.076 E47.46663
G1 X31.268 Y77.179 E47.52686
G1 X41.278 Y77.097 E47.88448
G1 X49.383 Y77.124 E48.17406
G1 X49.442 Y77.581 F6000.000
G1 X69.639 Y77.648 E48.89562 F1800.000
G1 X144.631 Y77.648 E51.57477
G1 X172.990 Y77.554 E52.58795
G1 X182.865 Y77.635 E52.94076 F1800.000
G1 X184.069 Y78.387 E52.99148
G1 X184.991 Y80.252 E53.06579
G1 X185.105 Y80.607 E53.07913
G1 X185.244 Y81.467 E53.11023
G1 X185.244 Y81.870 E53.12465
G1 X185.105 Y82.730 E53.15575
G1 X184.991 Y83.085 E53.16909
G1 X184.070 Y84.950 E53.24339
G1 X182.866 Y85.702 E53.29409
G1 X178.102 Y85.743 E53.46432
G1 X144.627 Y85.539 E54.66026
G1 X69.644 Y85.539 E57.33911
G1 X36.187 Y85.743 E58.53438
G1 X31.401 Y85.702 E58.70540
G1 X30.194 Y84.943 E58.75634
G1 X28.871 Y82.253 E58.86342
G1 X28.871 Y81.084 E58.90519
G1 X30.194 Y78.394 E59.01229
G1 X31.402 Y77.635 E59.06325
G1 X41.280 Y77.554 E59.41618
G1 X49.382 Y77.581 E59.70563
G1 X49.440 Y78.038 F6000.000
G1 X69.639 Y78.105 E60.42724 F1800.000
G1 X144.631 Y78.105 E63.10642
G1 X172.976 Y78.011 E64.11906
G1 X182.733 Y78.091 E64.46764 F1800.000
G1 X183.718 Y78.706 E64.50913
G1 X184.566 Y80.423 E64.57754
G1 X184.659 Y80.714 E64.58845
G1 X184.787 Y81.503 E64.61703
G1 X184.787 Y81.834 E64.62883
G1 X184.659 Y82.623 E64.65741
G1 X184.566 Y82.914 E64.66832
G1 X183.718 Y84.631 E64.73672
G1 X182.733 Y85.246 E64.77819
G1 X178.099 Y85.286 E64.94376
G1 X144.628 Y85.082 E66.13956
G1 X69.642 Y85.082 E68.81851
G1 X36.186 Y85.286 E70.01378
G1 X31.534 Y85.246 E70.17998
G1 X30.547 Y84.625 E70.22166
G1 X29.328 Y82.147 E70.32032
G1 X29.328 Y81.190 E70.35449
G1 X30.547 Y78.712 E70.45316
G1 X31.535 Y78.091 E70.49485
G1 X41.283 Y78.011 E70.84311
G1 X49.380 Y78.038 E71.13241
G1 X49.439 Y78.495 F6000.000
G1 X69.638 Y78.562 E71.85406 F1800.000
G1 X144.632 Y78.562 E74.53329
G1 X172.985 Y78.469 E75.54624
G1 X182.600 Y78.547 E75.88974 F1800.000
G1 X183.366 Y79.026 E75.92201
G1 X184.141 Y80.594 E75.98451
G1 X184.213 Y80.820 E75.99300
G1 X184.330 Y81.540 E76.01905
G1 X184.330 Y81.797 E76.02823
G1 X184.213 Y82.517 E76.05428
G1 X184.141 Y82.743 E76.06277
G1 X183.366 Y84.311 E76.12526
G1 X182.600 Y84.790 E76.15752
G1 X178.085 Y84.829 E76.31883
G1 X144.630 Y84.625 E77.51409
G1 X69.641 Y84.625 E80.19314
G1 X36.173 Y84.829 E81.38881
G1 X31.668 Y84.790 E81.54979
G1 X30.900 Y84.307 E81.58220
G1 X29.785 Y82.041 E81.67244
G1 X29.785 Y81.297 E81.69901
G1 X30.900 Y79.030 E81.78925
G1 X31.668 Y78.547 E81.82168
G1 X41.285 Y78.469 E82.16526
G1 X49.379 Y78.495 E82.45442
G1 X49.437 Y78.952 F6000.000
G1 X69.637 Y79.019 E83.17609 F1800.000
G1 X144.633 Y79.019 E85.85538
G1 X172.976 Y78.926 E86.86798
G1 X182.467 Y79.003 E87.20706 F1800.000
G1 X183.014 Y79.345 E87.23011
G1 X183.716 Y80.765 E87.28670
G1 X183.767 Y80.927 E87.29276
G1 X183.872 Y81.577 E87.31629
G1 X183.872 Y81.760 E87.32284
G1 X183.767 Y82.410 E87.34637
G1 X183.716 Y82.572 E87.35244
G1 X183.014 Y83.992 E87.40902
G1 X182.468 Y84.334 E87.43206
G1 X178.086 Y84.372 E87.58859
G1 X144.631 Y84.168 E88.78384
G1 X69.639 Y84.168 E91.46298
G1 X36.176 Y84.372 E92.65853
G1 X31.801 Y84.334 E92.81481
G1 X31.253 Y83.989 E92.83797
G1 X30.243 Y81.934 E92.91977
G1 X30.243 Y81.403 E92.93875
G1 X31.253 Y79.348 E93.02057
G1 X31.802 Y79.003 E93.04373
G1 X41.287 Y78.926 E93.38263
G1 X49.377 Y78.952 E93.67165
G1 E92.67165 F2400.00000
G92 E0
G1 X31.935 Y79.459 F6000.000
G1 E1.00000 F2400.00000
G1 X41.294 Y79.383 E1.33436 F1800.000
G1 X69.636 Y79.476 E2.34691
G1 X144.634 Y79.476 E5.02628
G1 X172.977 Y79.383 E6.03886
G1 X182.334 Y79.459 E6.37319
G1 X182.663 Y79.664 E6.38702
G1 X183.291 Y80.936 E6.43770
G1 X183.322 Y81.033 E6.44134
G1 X183.415 Y81.614 E6.46234
G1 X183.415 Y81.724 E6.46628
G1 X183.322 Y82.304 E6.48728
G1 X183.291 Y82.401 E6.49092
G1 X182.663 Y83.673 E6.54160
G1 X182.335 Y83.878 E6.55542
G1 X178.087 Y83.915 E6.70716
G1 X144.632 Y83.710 E7.90240
G1 X69.638 Y83.710 E10.58165
G1 X36.183 Y83.915 E11.77688
G1 X31.935 Y83.878 E11.92865
G1 X31.606 Y83.671 E11.94255
G1 X30.700 Y81.828 E12.01592
G1 X30.700 Y81.509 E12.02731
G1 X31.606 Y79.666 E12.10069
G1 X31.884 Y79.491 E12.11245
G1 X32.069 Y79.915 F6000.000
G1 X41.294 Y79.840 E12.44203 F1800.000
G1 X69.636 Y79.933 E13.45460
G1 X144.634 Y79.933 E16.13399
G1 X172.977 Y79.840 E17.14656
G1 X182.202 Y79.915 E17.47613
G1 X182.311 Y79.983 E17.48074
G1 X182.865 Y81.107 E17.52551
G1 X182.958 Y81.687 E17.54649
G1 X182.865 Y82.230 E17.56617
G1 X182.311 Y83.354 E17.61094
G1 X182.202 Y83.422 E17.61555
G1 X178.089 Y83.458 E17.76250
G1 X144.634 Y83.253 E18.95773
G1 X69.637 Y83.253 E21.63707
G1 X36.182 Y83.458 E22.83230
G1 X32.068 Y83.422 E22.97926
G1 X31.959 Y83.353 E22.98389
G1 X31.157 Y81.722 E23.04884
G1 X31.157 Y81.615 E23.05264
G1 X31.959 Y79.984 E23.11759
G1 X32.018 Y79.947 E23.12008
G1 E22.12008 F2400.00000
G92 E0
G1 X83.076 Y65.696 F6000.000
G1 E1.00000 F2400.00000
G1 X82.983 Y65.347 E1.01288 F1800.000
G1 X82.856 Y64.735 E1.03522
G1 X82.766 Y64.117 E1.05752
G1 X82.713 Y63.495 E1.07984
G1 X82.698 Y62.870 E1.10216
G1 X82.721 Y62.246 E1.12449
G1 X82.782 Y61.624 E1.14682
G1 X82.880 Y61.007 E1.16914
G1 X83.014 Y60.397 E1.19143
G1 X83.186 Y59.796 E1.21378
G1 X83.394 Y59.207 E1.23609
G1 X83.636 Y58.631 E1.25841
G1 X83.914 Y58.071 E1.28073
G1 X84.224 Y57.529 E1.30305
G1 X84.566 Y57.007 E1.32537
G1 X84.940 Y56.506 E1.34769
G1 X85.343 Y56.028 E1.37000
G1 X85.774 Y55.576 E1.39232
G1 X86.231 Y55.151 E1.41463
G1 X86.714 Y54.754 E1.43696
G1 X87.220 Y54.387 E1.45929
G1 X87.746 Y54.051 E1.48160
G1 X88.292 Y53.748 E1.50392
G1 X88.856 Y53.478 E1.52624
G1 X89.434 Y53.242 E1.54855
G1 X90.026 Y53.042 E1.57088
G1 X90.629 Y52.878 E1.59321
G1 X91.112 Y52.775 E1.61084
G1 X91.635 Y52.691 E1.62976
G1 X91.757 Y52.633 E1.63461
G1 X91.952 Y52.455 E1.64403
G1 X93.727 Y52.616 E1.70771
G1 X94.352 Y52.677 E1.73015 F1800.000
G1 X94.840 Y52.751 E1.74779
G1 X95.452 Y52.878 E1.77011
G1 X96.055 Y53.042 E1.79242
G1 X96.770 Y53.289 E1.81943
G1 X97.345 Y53.532 E1.84176
G1 X97.789 Y53.748 E1.85938
G1 X98.335 Y54.051 E1.88170
G1 X98.970 Y54.461 E1.90870
G1 X99.471 Y54.835 E1.93103
G1 X99.948 Y55.238 E1.95335
G1 X100.400 Y55.669 E1.97567
G1 X100.738 Y56.028 E1.99330
G1 X101.141 Y56.506 E2.01562
G1 X101.515 Y57.007 E2.03794
G1 X101.857 Y57.529 E2.06026
G1 X102.168 Y58.071 E2.08258
G1 X102.499 Y58.751 E2.10959
G1 X102.688 Y59.207 E2.12722
G1 X102.895 Y59.796 E2.14954
G1 X103.141 Y60.662 E2.18169
G1 X103.699 Y60.767 E2.20199
G1 X104.041 Y60.330 E2.22183
G1 X104.375 Y59.967 E2.23943
G1 X104.896 Y59.488 E2.26473
G1 X105.462 Y59.063 E2.29002
G1 X106.068 Y58.696 E2.31532
G1 X106.707 Y58.391 E2.34062
G1 X107.373 Y58.151 E2.36591
G1 X108.059 Y57.978 E2.39120
G1 X108.759 Y57.873 E2.41648
G1 X109.682 Y57.842 E2.44946
G1 X110.388 Y57.899 E2.47476
G1 X110.874 Y57.979 E2.49237
G1 X111.765 Y58.220 E2.52534
G1 X112.226 Y58.395 E2.54295
G1 X112.860 Y58.699 E2.56809
G1 X113.151 Y58.651 E2.57862
G1 X114.163 Y57.639 E2.62976
G1 X119.761 Y57.639 E2.82973
G1 X120.773 Y58.651 E2.88086
G1 X121.064 Y58.699 E2.89139
G1 X121.698 Y58.395 E2.91654
G1 X122.159 Y58.220 E2.93415
G1 X122.840 Y58.025 E2.95944
G1 X123.536 Y57.899 E2.98473
G1 X124.242 Y57.842 E3.01003
G1 X124.950 Y57.855 E3.03533
G1 X125.865 Y57.978 E3.06829
G1 X126.551 Y58.151 E3.09359
G1 X127.217 Y58.391 E3.11888
G1 X127.856 Y58.696 E3.14417
G1 X128.462 Y59.063 E3.16947
G1 X129.028 Y59.488 E3.19476
G1 X129.549 Y59.967 E3.22005
G1 X130.021 Y60.495 E3.24535
G1 X130.437 Y61.068 E3.27064
G1 X130.796 Y61.679 E3.29594
G1 X131.091 Y62.322 E3.32123
G1 X131.322 Y62.991 E3.34653
G1 X131.485 Y63.680 E3.37181
G1 X131.580 Y64.382 E3.39711
G1 X131.604 Y64.874 E3.41472
G1 X131.580 Y65.581 E3.44001
G1 X131.486 Y66.283 E3.46530
G1 X131.322 Y66.972 E3.49059
G1 X131.091 Y67.641 E3.51589
G1 X130.796 Y68.285 E3.54118
G1 X130.317 Y69.074 E3.57416
G1 X130.021 Y69.468 E3.59177
G1 X129.549 Y69.996 E3.61705
G1 X129.028 Y70.475 E3.64235
G1 X128.462 Y70.900 E3.66765
G1 X127.665 Y71.366 E3.70062
G1 X127.017 Y71.652 E3.72592
G1 X126.551 Y71.812 E3.74352
G1 X125.865 Y71.986 E3.76882
G1 X124.950 Y72.108 E3.80179
G1 X124.242 Y72.121 E3.82708
G1 X123.537 Y72.064 E3.85238
G1 X122.840 Y71.938 E3.87768
G1 X122.364 Y71.810 E3.89528
G1 X121.812 Y71.612 E3.91623
G1 X121.501 Y71.482 E3.92827
G1 X121.060 Y71.262 E3.94587
G1 X120.455 Y70.895 E3.97117
G1 X119.786 Y70.381 E4.00129
G1 X119.633 Y70.324 E4.00715
G1 X114.291 Y70.324 E4.19797
G1 X114.138 Y70.381 E4.20383
G1 X113.646 Y70.771 E4.22627
G1 X113.052 Y71.157 E4.25157
G1 X112.423 Y71.482 E4.27685
G1 X111.765 Y71.743 E4.30215
G1 X110.874 Y71.984 E4.33513
G1 X110.174 Y72.089 E4.36042
G1 X109.467 Y72.125 E4.38571
G1 X108.974 Y72.108 E4.40332
G1 X108.271 Y72.025 E4.42860
G1 X107.579 Y71.872 E4.45392
G1 X106.707 Y71.572 E4.48688
G1 X106.259 Y71.366 E4.50449
G1 X105.643 Y71.018 E4.52978
